(G-code generated by FlatCAM Evo vUnstable - Version Date: 2023/6/31)

(Name: Assignment 4.3 CNC 2 PCB.drl_cnc)
(Type: G-code from Excellon)
(Units: MM)

(Created on Monday, 29 December 2025 at 03:33)

(This preprocessor is the default preprocessor.)
(It is made to work with MACH3 compatible motion controllers.)


(TOOLS DIAMETER: )
(Tool: 1 -> Dia: 0.8)

(FEEDRATE Z: )
(Tool: 1 -> Feedrate: 60.0)

(FEEDRATE RAPIDS: )
(Tool: 1 -> Feedrate Rapids: 1500)

(Z_CUT: )
(Tool: 1 -> Z_Cut: -1.7)

(Tools Offset: )
(Tool: 1 -> Offset Z: 0.0)

(Z_MOVE: )
(Tool: 1 -> Z_Move: 2)

(Z Start: None mm)
(Z End: 15 mm)
(X,Y End: None mm)
(Steps per circle: 16)
(Preprocessor Excellon: default)

(X range:  181.9500 ...  257.9000  mm)
(Y range: -149.5500 ... -118.9800  mm)

(Spindle Speed: 0 RPM)
G21
G90
G94

G01 F60.00
G00 Z2.0000

M03
G00 X182.5000 Y-144.5000
G01 Z-1.7000
G01 Z0
G00 Z2.0000
G00 X182.5000 Y-149.0000
G01 Z-1.7000
G01 Z0
G00 Z2.0000
G00 X189.0000 Y-149.0000
G01 Z-1.7000
G01 Z0
G00 Z2.0000
G00 X189.0000 Y-144.5000
G01 Z-1.7000
G01 Z0
G00 Z2.0000
G00 X219.7250 Y-125.0000
G01 Z-1.7000
G01 Z0
G00 Z2.0000
G00 X222.2650 Y-125.0000
G01 Z-1.7000
G01 Z0
G00 Z2.0000
G00 X257.5000 Y-127.0000
G01 Z-1.7000
G01 Z0
G00 Z2.0000
G00 X257.5000 Y-119.3800
G01 Z-1.7000
G01 Z0
G00 Z2.0000
M05
G00 Z15.00


