(G-code generated by FlatCAM Evo vUnstable - Version Date: 2023/6/31)

(Name: Assignment 4.3 CNC 2 PCB-Edge_Cuts.gm1_iso_combined_cnc)
(Type: G-code from Geometry)
(Units: MM)

(Created on Monday, 29 December 2025 at 03:45)

(This preprocessor is the default preprocessor.)
(It is made to work with MACH3 compatible motion controllers.)

(TOOL DIAMETER: 0.1 mm)
(Feedrate_XY: 120.0 mm/min)
(Feedrate_Z: 60.0 mm/min)
(Feedrate rapids 1500.0 mm/min)

(Z_Cut: -1.7 mm)
(Z_Move: 2.0 mm)
(Z Start: None mm)
(Z End: 15.0 mm)
(X,Y End: None mm)
(Steps per circle: 16)
(Preprocessor Geometry: default)

(X range:  176.9250 ...  262.0750  mm)
(Y range: -152.5750 ...  -97.4250  mm)

(Spindle Speed: 0.0 RPM)
G21
G90
G94

G01 F120.00
G00 Z2.0000

M03
G01 F120.00
G00 X176.9250 Y-97.4988
G01 F60.00
G01 Z-1.7000
G01 F120.00
G01 X176.9307 Y-97.4713
G01 X176.9470 Y-97.4470
G01 X176.9713 Y-97.4307
G01 X177.0000 Y-97.4250
G01 X262.0000 Y-97.4250
G01 X262.0417 Y-97.4376
G01 X262.0662 Y-97.4646
G01 X262.0750 Y-97.5000
G01 X262.0750 Y-152.5000
G01 X262.0624 Y-152.5417
G01 X262.0354 Y-152.5662
G01 X262.0000 Y-152.5750
G01 X177.0000 Y-152.5750
G01 X176.9583 Y-152.5624
G01 X176.9338 Y-152.5354
G01 X176.9250 Y-152.5000
G01 X176.9250 Y-97.4988
G00 Z2.0000
G00 X177.0750 Y-97.5750
G01 F60.00
G01 Z-1.7000
G01 F120.00
G01 X177.0750 Y-152.4250
G01 X261.9250 Y-152.4250
G01 X261.9250 Y-97.5750
G01 X177.0750 Y-97.5750
G00 Z2.0000
M05
G00 Z2.0000
G00 Z15.00


