(G-code generated by FlatCAM Evo vUnstable - Version Date: 2023/6/31)

(Name: Assignment 4.3 CNC 2 PCB-F_Cu.gtl_iso_combined_cnc)
(Type: G-code from Geometry)
(Units: MM)

(Created on Monday, 29 December 2025 at 03:12)

(This preprocessor is the default preprocessor.)
(It is made to work with MACH3 compatible motion controllers.)

(TOOL DIAMETER: 0.1375 mm)
(Feedrate_XY: 120.0 mm/min)
(Feedrate_Z: 60.0 mm/min)
(Feedrate rapids 1500.0 mm/min)

(Z_Cut: -0.07 mm)
(Z_Move: 2.0 mm)
(Z Start: None mm)
(Z End: 15.0 mm)
(X,Y End: None mm)
(Steps per circle: 16)
(Preprocessor Geometry: default)

(X range:  179.2532 ...  258.7738  mm)
(Y range: -150.0687 ... -101.0718  mm)

(Spindle Speed: 0.0 RPM)
G21
G90
G94

G01 F120.00
G00 Z2.0000

M03
G01 F120.00
G00 X179.6547 Y-101.2884
G01 F60.00
G01 Z-0.0700
G01 F120.00
G01 X179.6730 Y-101.2192
G01 X179.7106 Y-101.1584
G01 X179.7643 Y-101.1111
G01 X179.8294 Y-101.0814
G01 X179.9003 Y-101.0718
G01 X179.9709 Y-101.0833
G01 X180.0352 Y-101.1148
G01 X180.0875 Y-101.1636
G01 X180.1179 Y-101.2125
G01 X180.8303 Y-102.7390
G01 X181.5651 Y-101.1741
G01 X181.6015 Y-101.1336
G01 X181.6517 Y-101.0990
G01 X181.7009 Y-101.0800
G01 X181.7602 Y-101.0718
G01 X181.8191 Y-101.0782
G01 X181.8697 Y-101.0961
G01 X181.9208 Y-101.1293
G01 X181.9607 Y-101.1721
G01 X181.9959 Y-101.2416
G01 X182.0074 Y-101.3156
G01 X182.0074 Y-104.1156
G01 X182.0020 Y-104.1665
G01 X181.9802 Y-104.2275
G01 X181.9499 Y-104.2728
G01 X181.9156 Y-104.3062
G01 X181.8595 Y-104.3398
G01 X181.8078 Y-104.3553
G01 X181.7363 Y-104.3579
G01 X181.6734 Y-104.3421
G01 X181.6254 Y-104.3164
G01 X181.5773 Y-104.2728
G01 X181.5470 Y-104.2275
G01 X181.5250 Y-104.1656
G01 X181.5198 Y-104.1156
G01 X181.5198 Y-102.4147
G01 X181.0383 Y-103.4427
G01 X180.9966 Y-103.4939
G01 X180.9516 Y-103.5270
G01 X180.8930 Y-103.5512
G01 X180.8226 Y-103.5593
G01 X180.7665 Y-103.5509
G01 X180.7068 Y-103.5258
G01 X180.6528 Y-103.4827
G01 X180.6201 Y-103.4391
G01 X180.1408 Y-102.4147
G01 X180.1408 Y-104.1156
G01 X180.1353 Y-104.1665
G01 X180.1103 Y-104.2335
G01 X180.0693 Y-104.2880
G01 X180.0148 Y-104.3290
G01 X179.9470 Y-104.3542
G01 X179.8764 Y-104.3585
G01 X179.8068 Y-104.3421
G01 X179.7449 Y-104.3062
G01 X179.7064 Y-104.2676
G01 X179.6646 Y-104.1896
G01 X179.6531 Y-104.1156
G01 X179.6547 Y-101.2884
G00 Z2.0000
G00 X182.7210 Y-103.4259
G01 F60.00
G01 Z-0.0700
G01 F120.00
G01 X182.7455 Y-103.3399
G01 X182.8788 Y-103.0732
G01 X182.9150 Y-103.0200
G01 X182.9791 Y-102.9688
G01 X183.2545 Y-102.8308
G01 X183.3497 Y-102.8056
G01 X183.9727 Y-102.8051
G01 X184.0531 Y-102.7649
G01 X184.0531 Y-102.7065
G01 X183.9819 Y-102.5640
G01 X183.8394 Y-102.4928
G01 X183.4212 Y-102.4928
G01 X183.1581 Y-102.6183
G01 X183.0698 Y-102.6245
G01 X182.9791 Y-102.5957
G01 X182.9347 Y-102.5642
G01 X182.8924 Y-102.5150
G01 X182.8681 Y-102.4662
G01 X182.8535 Y-102.3962
G01 X182.8587 Y-102.3306
G01 X182.8757 Y-102.2798
G01 X182.9106 Y-102.2251
G01 X182.9501 Y-102.1876
G01 X183.2545 Y-102.0308
G01 X183.3192 Y-102.0092
G01 X183.9108 Y-102.0056
G01 X183.9933 Y-102.0250
G01 X184.2726 Y-102.1642
G01 X184.3208 Y-102.1959
G01 X184.3611 Y-102.2393
G01 X184.5211 Y-102.5531
G01 X184.5407 Y-102.6456
G01 X184.5398 Y-104.1361
G01 X184.5292 Y-104.1896
G01 X184.5103 Y-104.2335
G01 X184.4717 Y-104.2856
G01 X184.4345 Y-104.3169
G01 X184.3709 Y-104.3479
G01 X184.3003 Y-104.3594
G01 X184.2294 Y-104.3498
G01 X184.1653 Y-104.3207
G01 X184.1042 Y-104.3479
G01 X184.0442 Y-104.3590
G01 X183.3431 Y-104.3585
G01 X183.2672 Y-104.3395
G01 X182.9879 Y-104.2004
G01 X182.9347 Y-104.1642
G01 X182.8923 Y-104.1147
G01 X182.7347 Y-103.7996
G01 X182.7202 Y-103.7295
G01 X182.7210 Y-103.4259
G00 Z2.0000
G00 X184.0509 Y-103.2918
G01 F60.00
G01 Z-0.0700
G01 F120.00
G01 X183.4212 Y-103.2928
G01 X183.2787 Y-103.3640
G01 X183.2074 Y-103.5065
G01 X183.2074 Y-103.6580
G01 X183.2787 Y-103.8005
G01 X183.4212 Y-103.8718
G01 X183.9727 Y-103.8718
G01 X184.0531 Y-103.8316
G01 X184.0509 Y-103.2918
G00 Z2.0000
G00 X185.2540 Y-102.7616
G01 F60.00
G01 Z-0.0700
G01 F120.00
G01 X185.2730 Y-102.6859
G01 X185.4258 Y-102.3829
G01 X185.5946 Y-102.2065
G01 X185.6457 Y-102.1689
G01 X185.9243 Y-102.0294
G01 X185.9866 Y-102.0091
G01 X186.5864 Y-102.0063
G01 X186.5865 Y-101.3122
G01 X186.5960 Y-101.2481
G01 X186.6137 Y-101.2037
G01 X186.6440 Y-101.1584
G01 X186.6782 Y-101.1250
G01 X186.7344 Y-101.0915
G01 X186.7860 Y-101.0759
G01 X186.8508 Y-101.0727
G01 X186.9042 Y-101.0833
G01 X186.9629 Y-101.1111
G01 X187.0050 Y-101.1456
G01 X187.0568 Y-101.2254
G01 X187.0741 Y-101.3156
G01 X187.0741 Y-104.1156
G01 X187.0542 Y-104.2120
G01 X187.0002 Y-104.2903
G01 X186.9261 Y-104.3398
G01 X186.8508 Y-104.3585
G01 X186.7794 Y-104.3540
G01 X186.6986 Y-104.3207
G01 X186.6376 Y-104.3479
G01 X186.5775 Y-104.3590
G01 X186.0096 Y-104.3585
G01 X185.9212 Y-104.3337
G01 X185.6545 Y-104.2004
G01 X185.6064 Y-104.1686
G01 X185.4258 Y-103.9816
G01 X185.2609 Y-103.6434
G01 X185.2531 Y-103.5823
G01 X185.2540 Y-102.7616
G00 Z2.0000
G00 X186.5060 Y-102.4928
G01 F60.00
G01 Z-0.0700
G01 F120.00
G01 X186.0878 Y-102.4928
G01 X185.9080 Y-102.5827
G01 X185.8307 Y-102.6600
G01 X185.7408 Y-102.8398
G01 X185.7408 Y-103.5247
G01 X185.8307 Y-103.7045
G01 X185.9080 Y-103.7819
G01 X186.0878 Y-103.8718
G01 X186.5060 Y-103.8718
G01 X186.5864 Y-103.8316
G01 X186.5864 Y-102.5330
G01 X186.5060 Y-102.4928
G00 Z2.0000
G00 X189.6730 Y-101.2192
G01 F60.00
G01 Z-0.0700
G01 F120.00
G01 X189.7106 Y-101.1584
G01 X189.7593 Y-101.1143
G01 X189.8229 Y-101.0833
G01 X189.8764 Y-101.0727
G01 X191.4969 Y-101.0718
G01 X191.5709 Y-101.0833
G01 X191.6352 Y-101.1148
G01 X191.6875 Y-101.1636
G01 X191.7292 Y-101.2416
G01 X191.7398 Y-101.3361
G01 X191.7135 Y-101.4275
G01 X191.6542 Y-101.5019
G01 X191.5871 Y-101.5421
G01 X191.5003 Y-101.5594
G01 X190.9408 Y-101.5594
G01 X190.9398 Y-104.1361
G01 X190.9234 Y-104.2058
G01 X190.8875 Y-104.2676
G01 X190.8345 Y-104.3169
G01 X190.7709 Y-104.3479
G01 X190.7242 Y-104.3579
G01 X190.6697 Y-104.3579
G01 X190.6068 Y-104.3421
G01 X190.5643 Y-104.3202
G01 X190.5245 Y-104.2880
G01 X190.4924 Y-104.2482
G01 X190.4704 Y-104.2058
G01 X190.4547 Y-104.1429
G01 X190.4531 Y-101.5594
G01 X189.8936 Y-101.5594
G01 X189.8005 Y-101.5395
G01 X189.7245 Y-101.4880
G01 X189.6704 Y-101.4058
G01 X189.6532 Y-101.3122
G01 X189.6730 Y-101.2192
G00 Z2.0000
G00 X192.0541 Y-101.4284
G01 F60.00
G01 Z-0.0700
G01 F120.00
G01 X192.0646 Y-101.3749
G01 X192.0961 Y-101.3107
G01 X192.2603 Y-101.1409
G01 X192.3369 Y-101.0903
G01 X192.3827 Y-101.0764
G01 X192.4336 Y-101.0718
G01 X192.5010 Y-101.0823
G01 X192.5657 Y-101.1129
G01 X192.7360 Y-101.2765
G01 X192.7889 Y-101.3556
G01 X192.8027 Y-101.4014
G01 X192.8073 Y-101.4523
G01 X192.7969 Y-101.5197
G01 X192.7663 Y-101.5844
G01 X192.6026 Y-101.7547
G01 X192.5235 Y-101.8076
G01 X192.4779 Y-101.8214
G01 X192.4269 Y-101.8260
G01 X192.3595 Y-101.8156
G01 X192.2948 Y-101.7850
G01 X192.1222 Y-101.6189
G01 X192.0835 Y-101.5668
G01 X192.0646 Y-101.5229
G01 X192.0541 Y-101.4284
G00 Z2.0000
G00 X192.2038 Y-102.1588
G01 F60.00
G01 Z-0.0700
G01 F120.00
G01 X192.2397 Y-102.0969
G01 X192.2976 Y-102.0444
G01 X192.3802 Y-102.0103
G01 X192.4575 Y-102.0067
G01 X192.5422 Y-102.0324
G01 X192.6027 Y-102.0765
G01 X192.6468 Y-102.1370
G01 X192.6725 Y-102.2217
G01 X192.6725 Y-104.1429
G01 X192.6468 Y-104.2275
G01 X192.6027 Y-104.2880
G01 X192.5422 Y-104.3322
G01 X192.4575 Y-104.3579
G01 X192.3627 Y-104.3498
G01 X192.2782 Y-104.3062
G01 X192.2169 Y-104.2335
G01 X192.1880 Y-104.1429
G01 X192.1864 Y-102.2489
G01 X192.2038 Y-102.1588
G00 Z2.0000
G00 X193.5313 Y-102.1750
G01 F60.00
G01 Z-0.0700
G01 F120.00
G01 X193.5590 Y-102.1163
G01 X193.6063 Y-102.0627
G01 X193.6517 Y-102.0324
G01 X193.7193 Y-102.0092
G01 X193.7841 Y-102.0060
G01 X193.8376 Y-102.0167
G01 X193.8962 Y-102.0444
G01 X193.9446 Y-102.0858
G01 X194.0677 Y-102.0248
G01 X194.1363 Y-102.0067
G01 X194.5775 Y-102.0056
G01 X194.6600 Y-102.0250
G01 X194.9393 Y-102.1642
G01 X194.9874 Y-102.1959
G01 X195.0278 Y-102.2393
G01 X195.1877 Y-102.5531
G01 X195.2070 Y-102.6350
G01 X195.2065 Y-104.1361
G01 X195.1959 Y-104.1896
G01 X195.1770 Y-104.2335
G01 X195.1499 Y-104.2728
G01 X195.1018 Y-104.3164
G01 X195.0595 Y-104.3398
G01 X195.0078 Y-104.3553
G01 X194.9431 Y-104.3585
G01 X194.8896 Y-104.3479
G01 X194.8310 Y-104.3202
G01 X194.7912 Y-104.2880
G01 X194.7590 Y-104.2482
G01 X194.7313 Y-104.1896
G01 X194.7198 Y-104.1156
G01 X194.7198 Y-102.7065
G01 X194.6485 Y-102.5640
G01 X194.5060 Y-102.4928
G01 X194.2212 Y-102.4928
G01 X194.0414 Y-102.5827
G01 X194.0074 Y-102.6166
G01 X194.0074 Y-104.1156
G01 X193.9978 Y-104.1831
G01 X193.9681 Y-104.2482
G01 X193.9208 Y-104.3019
G01 X193.8755 Y-104.3322
G01 X193.8078 Y-104.3553
G01 X193.7363 Y-104.3579
G01 X193.6672 Y-104.3395
G01 X193.6063 Y-104.3019
G01 X193.5628 Y-104.2538
G01 X193.5313 Y-104.1896
G01 X193.5198 Y-104.1156
G01 X193.5198 Y-102.2489
G01 X193.5313 Y-102.1750
G00 Z2.0000
G00 X196.0704 Y-101.2254
G01 F60.00
G01 Z-0.0700
G01 F120.00
G01 X196.1064 Y-101.1636
G01 X196.1593 Y-101.1143
G01 X196.2294 Y-101.0814
G01 X196.3003 Y-101.0718
G01 X196.3871 Y-101.0891
G01 X196.4490 Y-101.1250
G01 X196.4982 Y-101.1780
G01 X196.5292 Y-101.2416
G01 X196.5408 Y-101.3156
G01 X196.5408 Y-102.7269
G01 X197.1912 Y-102.0765
G01 X197.2457 Y-102.0356
G01 X197.3363 Y-102.0067
G01 X197.3908 Y-102.0067
G01 X197.4376 Y-102.0167
G01 X197.4815 Y-102.0356
G01 X197.5336 Y-102.0742
G01 X197.5877 Y-102.1531
G01 X197.6058 Y-102.2217
G01 X197.6058 Y-102.2762
G01 X197.5901 Y-102.3391
G01 X197.5542 Y-102.4010
G01 X196.8856 Y-103.0718
G01 X197.5587 Y-103.9693
G01 X197.5848 Y-104.0132
G01 X197.6072 Y-104.1057
G01 X197.5924 Y-104.1997
G01 X197.5428 Y-104.2808
G01 X197.4660 Y-104.3369
G01 X197.3973 Y-104.3570
G01 X197.3258 Y-104.3564
G01 X197.2575 Y-104.3351
G01 X197.1984 Y-104.2948
G01 X196.5408 Y-103.4249
G01 X196.5407 Y-104.1190
G01 X196.5312 Y-104.1831
G01 X196.5103 Y-104.2335
G01 X196.4693 Y-104.2880
G01 X196.4148 Y-104.3290
G01 X196.3470 Y-104.3542
G01 X196.2764 Y-104.3585
G01 X196.2068 Y-104.3421
G01 X196.1587 Y-104.3164
G01 X196.1064 Y-104.2676
G01 X196.0728 Y-104.2115
G01 X196.0531 Y-104.1156
G01 X196.0531 Y-101.3156
G01 X196.0704 Y-101.2254
G00 Z2.0000
G00 X198.1876 Y-102.6259
G01 F60.00
G01 Z-0.0700
G01 F120.00
G01 X198.2122 Y-102.5399
G01 X198.3502 Y-102.2645
G01 X198.3889 Y-102.2122
G01 X198.4545 Y-102.1642
G01 X198.7691 Y-102.0129
G01 X198.8303 Y-102.0051
G01 X199.4079 Y-102.0092
G01 X199.4696 Y-102.0294
G01 X199.7393 Y-102.1642
G01 X199.7954 Y-102.2030
G01 X199.8484 Y-102.2732
G01 X199.9831 Y-102.5429
G01 X200.0033 Y-102.6047
G01 X200.0063 Y-102.9395
G01 X199.9890 Y-103.0087
G01 X199.9543 Y-103.0674
G01 X199.8962 Y-103.1202
G01 X199.8147 Y-103.1540
G01 X198.6741 Y-103.3822
G01 X198.6741 Y-103.6580
G01 X198.7453 Y-103.8005
G01 X198.8878 Y-103.8718
G01 X199.3060 Y-103.8718
G01 X199.5691 Y-103.7463
G01 X199.6574 Y-103.7400
G01 X199.7266 Y-103.7583
G01 X199.7684 Y-103.7814
G01 X199.8096 Y-103.8171
G01 X199.8468 Y-103.8702
G01 X199.8663 Y-103.9211
G01 X199.8740 Y-103.9870
G01 X199.8672 Y-104.0396
G01 X199.8437 Y-104.1001
G01 X199.8122 Y-104.1445
G01 X199.7423 Y-104.1988
G01 X199.4726 Y-104.3337
G01 X199.4136 Y-104.3542
G01 X199.3636 Y-104.3594
G01 X198.7794 Y-104.3540
G01 X198.7212 Y-104.3337
G01 X198.4545 Y-104.2004
G01 X198.3946 Y-104.1580
G01 X198.3455 Y-104.0913
G01 X198.2107 Y-103.8216
G01 X198.1894 Y-103.7533
G01 X198.1876 Y-102.6259
G00 Z2.0000
G00 X198.6741 Y-102.7065
G01 F60.00
G01 Z-0.0700
G01 F120.00
G01 X198.6741 Y-102.8848
G01 X199.5198 Y-102.7157
G01 X199.4485 Y-102.5640
G01 X199.3060 Y-102.4928
G01 X198.8878 Y-102.4928
G01 X198.7453 Y-102.5640
G01 X198.6741 Y-102.7065
G00 Z2.0000
G00 X200.7371 Y-102.1588
G01 F60.00
G01 Z-0.0700
G01 F120.00
G01 X200.7730 Y-102.0969
G01 X200.8116 Y-102.0584
G01 X200.8677 Y-102.0248
G01 X200.9363 Y-102.0067
G01 X201.0078 Y-102.0092
G01 X201.0755 Y-102.0324
G01 X201.1360 Y-102.0765
G01 X201.1792 Y-102.1352
G01 X201.3909 Y-102.0294
G01 X201.4469 Y-102.0103
G01 X201.7841 Y-102.0060
G01 X201.8600 Y-102.0250
G01 X201.9360 Y-102.0765
G01 X201.9802 Y-102.1370
G01 X202.0058 Y-102.2217
G01 X202.0033 Y-102.2932
G01 X201.9875 Y-102.3453
G01 X201.9542 Y-102.4010
G01 X201.9156 Y-102.4395
G01 X201.8595 Y-102.4731
G01 X201.7908 Y-102.4912
G01 X201.5545 Y-102.4928
G01 X201.3747 Y-102.5827
G01 X201.2973 Y-102.6600
G01 X201.2074 Y-102.8398
G01 X201.2058 Y-104.1429
G01 X201.1802 Y-104.2275
G01 X201.1360 Y-104.2880
G01 X201.0755 Y-104.3322
G01 X200.9908 Y-104.3579
G01 X200.8961 Y-104.3498
G01 X200.8116 Y-104.3062
G01 X200.7502 Y-104.2335
G01 X200.7213 Y-104.1429
G01 X200.7198 Y-102.2489
G01 X200.7371 Y-102.1588
G00 Z2.0000
G00 X202.3207 Y-102.6283
G01 F60.00
G01 Z-0.0700
G01 F120.00
G01 X202.3455 Y-102.5399
G01 X202.4804 Y-102.2702
G01 X202.5176 Y-102.2171
G01 X202.5791 Y-102.1688
G01 X202.8961 Y-102.0147
G01 X202.9636 Y-102.0051
G01 X203.4145 Y-102.0105
G01 X203.4726 Y-102.0308
G01 X203.7393 Y-102.1642
G01 X203.8003 Y-102.2076
G01 X203.8404 Y-102.2586
G01 X203.8626 Y-102.3084
G01 X203.8738 Y-102.3723
G01 X203.8709 Y-102.4213
G01 X203.8567 Y-102.4725
G01 X203.8249 Y-102.5291
G01 X203.7874 Y-102.5686
G01 X203.7327 Y-102.6035
G01 X203.6574 Y-102.6245
G01 X203.5686 Y-102.6181
G01 X203.3060 Y-102.4928
G01 X203.0212 Y-102.4928
G01 X202.8787 Y-102.5640
G01 X202.8074 Y-102.7065
G01 X202.8074 Y-102.7247
G01 X202.8787 Y-102.8672
G01 X203.0212 Y-102.9384
G01 X203.3636 Y-102.9384
G01 X203.4312 Y-102.9481
G01 X203.7539 Y-103.1055
G01 X203.7993 Y-103.1399
G01 X203.8311 Y-103.1775
G01 X203.9959 Y-103.5083
G01 X204.0070 Y-103.5684
G01 X204.0073 Y-103.7190
G01 X203.9995 Y-103.7773
G01 X203.9817 Y-103.8247
G01 X203.8437 Y-104.1001
G01 X203.7993 Y-104.1580
G01 X203.7393 Y-104.2004
G01 X203.4726 Y-104.3337
G01 X203.4136 Y-104.3542
G01 X202.8303 Y-104.3594
G01 X202.7794 Y-104.3540
G01 X202.7243 Y-104.3351
G01 X202.4516 Y-104.1988
G01 X202.3935 Y-104.1569
G01 X202.3535 Y-104.1059
G01 X202.3313 Y-104.0562
G01 X202.3200 Y-103.9923
G01 X202.3229 Y-103.9433
G01 X202.3371 Y-103.8920
G01 X202.3690 Y-103.8355
G01 X202.4064 Y-103.7959
G01 X202.4611 Y-103.7611
G01 X202.5365 Y-103.7400
G01 X202.6252 Y-103.7464
G01 X202.8878 Y-103.8718
G01 X203.3060 Y-103.8718
G01 X203.4485 Y-103.8005
G01 X203.5198 Y-103.6580
G01 X203.5198 Y-103.6398
G01 X203.4485 Y-103.4973
G01 X203.3060 Y-103.4261
G01 X202.9636 Y-103.4261
G01 X202.9019 Y-103.4181
G01 X202.5879 Y-103.2670
G01 X202.5398 Y-103.2353
G01 X202.4835 Y-103.1667
G01 X202.3347 Y-102.8662
G01 X202.3202 Y-102.7962
G01 X202.3207 Y-102.6283
G00 Z2.0000
G00 X203.1294 Y-105.7559
G01 F60.00
G01 Z-0.0700
G01 F120.00
G01 X203.1590 Y-105.6908
G01 X203.2063 Y-105.6372
G01 X203.2517 Y-105.6069
G01 X203.3193 Y-105.5837
G01 X204.0303 Y-105.5796
G01 X204.1074 Y-105.5921
G01 X204.5105 Y-105.7266
G01 X204.5874 Y-105.7704
G01 X204.8916 Y-106.0767
G01 X205.0484 Y-106.3811
G01 X205.0668 Y-106.4310
G01 X205.2052 Y-106.9911
G01 X205.2074 Y-107.4234
G01 X205.2020 Y-107.4743
G01 X205.0609 Y-108.0356
G01 X204.9103 Y-108.3413
G01 X204.8727 Y-108.3924
G01 X204.6027 Y-108.6625
G01 X204.5327 Y-108.7113
G01 X204.1074 Y-108.8548
G01 X204.0350 Y-108.8672
G01 X203.3193 Y-108.8632
G01 X203.2672 Y-108.8474
G01 X203.2116 Y-108.8140
G01 X203.1773 Y-108.7807
G01 X203.1470 Y-108.7354
G01 X203.1250 Y-108.6735
G01 X203.1198 Y-108.6234
G01 X203.1198 Y-105.8234
G01 X203.1294 Y-105.7559
G00 Z2.0000
G00 X204.6002 Y-106.5752
G01 F60.00
G01 Z-0.0700
G01 F120.00
G01 X204.4965 Y-106.3679
G01 X204.2985 Y-106.1699
G01 X203.9907 Y-106.0673
G01 X203.6074 Y-106.0673
G01 X203.6074 Y-108.3796
G01 X203.9907 Y-108.3796
G01 X204.2985 Y-108.2770
G01 X204.4965 Y-108.0790
G01 X204.6002 Y-107.8717
G01 X204.7198 Y-107.3934
G01 X204.7198 Y-107.0535
G01 X204.6002 Y-106.5752
G00 Z2.0000
G00 X205.9313 Y-106.6828
G01 F60.00
G01 Z-0.0700
G01 F120.00
G01 X205.9730 Y-106.6048
G01 X206.0310 Y-106.5522
G01 X206.1135 Y-106.5182
G01 X206.1908 Y-106.5145
G01 X206.2755 Y-106.5402
G01 X206.3360 Y-106.5844
G01 X206.3802 Y-106.6448
G01 X206.4058 Y-106.7295
G01 X206.4058 Y-108.6507
G01 X206.3802 Y-108.7354
G01 X206.3360 Y-108.7959
G01 X206.2755 Y-108.8400
G01 X206.1908 Y-108.8657
G01 X206.0961 Y-108.8577
G01 X206.0116 Y-108.8140
G01 X205.9502 Y-108.7413
G01 X205.9213 Y-108.6507
G01 X205.9198 Y-106.7568
G01 X205.9313 Y-106.6828
G00 Z2.0000
G00 X205.7873 Y-105.9362
G01 F60.00
G01 Z-0.0700
G01 F120.00
G01 X205.8038 Y-105.8666
G01 X205.8295 Y-105.8186
G01 X205.9936 Y-105.6487
G01 X206.0702 Y-105.5982
G01 X206.1160 Y-105.5843
G01 X206.1670 Y-105.5797
G01 X206.2343 Y-105.5901
G01 X206.2991 Y-105.6207
G01 X206.4693 Y-105.7844
G01 X206.5222 Y-105.8634
G01 X206.5361 Y-105.9092
G01 X206.5407 Y-105.9602
G01 X206.5303 Y-106.0275
G01 X206.4997 Y-106.0922
G01 X206.3360 Y-106.2626
G01 X206.2569 Y-106.3154
G01 X206.2112 Y-106.3293
G01 X206.1602 Y-106.3339
G01 X206.0928 Y-106.3234
G01 X206.0281 Y-106.2928
G01 X205.8555 Y-106.1268
G01 X205.8038 Y-106.0469
G01 X205.7905 Y-106.0010
G01 X205.7873 Y-105.9362
G00 Z2.0000
G00 X206.9887 Y-106.7242
G01 F60.00
G01 Z-0.0700
G01 F120.00
G01 X207.0085 Y-106.6555
G01 X207.0475 Y-106.5955
G01 X207.1022 Y-106.5493
G01 X207.1689 Y-106.5208
G01 X207.1980 Y-106.5151
G01 X207.2218 Y-106.5131
G01 X207.2390 Y-106.5132
G01 X207.3095 Y-106.5262
G01 X207.3729 Y-106.5591
G01 X207.4241 Y-106.6090
G01 X207.4599 Y-106.6748
G01 X207.8969 Y-107.8985
G01 X208.3340 Y-106.6748
G01 X208.3657 Y-106.6144
G01 X208.4023 Y-106.5740
G01 X208.4623 Y-106.5350
G01 X208.5243 Y-106.5162
G01 X208.5788 Y-106.5135
G01 X208.6488 Y-106.5284
G01 X208.7060 Y-106.5589
G01 X208.7464 Y-106.5955
G01 X208.7824 Y-106.6494
G01 X208.8069 Y-106.7413
G01 X208.8050 Y-106.7907
G01 X208.7932 Y-106.8388
G01 X208.1252 Y-108.7089
G01 X208.0775 Y-108.7873
G01 X208.0013 Y-108.8438
G01 X207.9090 Y-108.8670
G01 X207.8149 Y-108.8531
G01 X207.7333 Y-108.8042
G01 X207.6765 Y-108.7278
G01 X207.0006 Y-106.8388
G01 X206.9886 Y-106.7891
G01 X206.9887 Y-106.7242
G00 Z2.0000
G00 X209.2543 Y-107.1338
G01 F60.00
G01 Z-0.0700
G01 F120.00
G01 X209.2788 Y-107.0477
G01 X209.4137 Y-106.7781
G01 X209.4510 Y-106.7250
G01 X209.5125 Y-106.6767
G01 X209.8294 Y-106.5225
G01 X209.8969 Y-106.5129
G01 X210.3478 Y-106.5184
G01 X210.4060 Y-106.5387
G01 X210.6726 Y-106.6720
G01 X210.7336 Y-106.7154
G01 X210.7737 Y-106.7665
G01 X210.7959 Y-106.8162
G01 X210.8072 Y-106.8801
G01 X210.8043 Y-106.9291
G01 X210.7900 Y-106.9804
G01 X210.7582 Y-107.0369
G01 X210.7208 Y-107.0765
G01 X210.6661 Y-107.1113
G01 X210.5907 Y-107.1324
G01 X210.5019 Y-107.1260
G01 X210.2394 Y-107.0006
G01 X209.9545 Y-107.0006
G01 X209.8120 Y-107.0719
G01 X209.7408 Y-107.2143
G01 X209.7408 Y-107.2326
G01 X209.8120 Y-107.3750
G01 X209.9545 Y-107.4463
G01 X210.2969 Y-107.4463
G01 X210.3646 Y-107.4559
G01 X210.6872 Y-107.6134
G01 X210.7326 Y-107.6477
G01 X210.7645 Y-107.6853
G01 X210.9292 Y-108.0161
G01 X210.9403 Y-108.0762
G01 X210.9407 Y-108.2268
G01 X210.9328 Y-108.2851
G01 X210.9150 Y-108.3325
G01 X210.7770 Y-108.6079
G01 X210.7326 Y-108.6659
G01 X210.6726 Y-108.7082
G01 X210.4060 Y-108.8415
G01 X210.3470 Y-108.8621
G01 X209.7636 Y-108.8673
G01 X209.7127 Y-108.8619
G01 X209.6576 Y-108.8430
G01 X209.3849 Y-108.7066
G01 X209.3269 Y-108.6648
G01 X209.2868 Y-108.6138
G01 X209.2646 Y-108.5640
G01 X209.2534 Y-108.5001
G01 X209.2563 Y-108.4511
G01 X209.2705 Y-108.3998
G01 X209.3023 Y-108.3433
G01 X209.3398 Y-108.3038
G01 X209.3945 Y-108.2689
G01 X209.4698 Y-108.2479
G01 X209.5586 Y-108.2542
G01 X209.8212 Y-108.3796
G01 X210.2394 Y-108.3796
G01 X210.3818 Y-108.3084
G01 X210.4531 Y-108.1659
G01 X210.4531 Y-108.1477
G01 X210.3818 Y-108.0052
G01 X210.2394 Y-107.9340
G01 X209.8969 Y-107.9340
G01 X209.8353 Y-107.9260
G01 X209.5212 Y-107.7749
G01 X209.4731 Y-107.7431
G01 X209.4168 Y-107.6746
G01 X209.2681 Y-107.3741
G01 X209.2535 Y-107.3040
G01 X209.2543 Y-107.1338
G00 Z2.0000
G00 X211.6646 Y-106.6828
G01 F60.00
G01 Z-0.0700
G01 F120.00
G01 X211.7064 Y-106.6048
G01 X211.7643 Y-106.5522
G01 X211.8469 Y-106.5182
G01 X211.9242 Y-106.5145
G01 X212.0089 Y-106.5402
G01 X212.0693 Y-106.5844
G01 X212.1135 Y-106.6448
G01 X212.1392 Y-106.7295
G01 X212.1392 Y-108.6507
G01 X212.1135 Y-108.7354
G01 X212.0693 Y-108.7959
G01 X212.0089 Y-108.8400
G01 X211.9242 Y-108.8657
G01 X211.8294 Y-108.8577
G01 X211.7449 Y-108.8140
G01 X211.6835 Y-108.7413
G01 X211.6547 Y-108.6507
G01 X211.6531 Y-106.7568
G01 X211.6646 Y-106.6828
G00 Z2.0000
G00 X211.5207 Y-105.9362
G01 F60.00
G01 Z-0.0700
G01 F120.00
G01 X211.5313 Y-105.8828
G01 X211.5628 Y-105.8186
G01 X211.7270 Y-105.6487
G01 X211.8036 Y-105.5982
G01 X211.8494 Y-105.5843
G01 X211.9003 Y-105.5797
G01 X211.9677 Y-105.5901
G01 X212.0324 Y-105.6207
G01 X212.2027 Y-105.7844
G01 X212.2555 Y-105.8634
G01 X212.2694 Y-105.9092
G01 X212.2740 Y-105.9602
G01 X212.2636 Y-106.0275
G01 X212.2330 Y-106.0922
G01 X212.0693 Y-106.2626
G01 X211.9902 Y-106.3154
G01 X211.9445 Y-106.3293
G01 X211.8936 Y-106.3339
G01 X211.8261 Y-106.3234
G01 X211.7614 Y-106.2928
G01 X211.5888 Y-106.1268
G01 X211.5502 Y-106.0747
G01 X211.5313 Y-106.0308
G01 X211.5207 Y-105.9362
G00 Z2.0000
G00 X212.8543 Y-107.2671
G01 F60.00
G01 Z-0.0700
G01 F120.00
G01 X212.8788 Y-107.1811
G01 X213.0169 Y-106.9056
G01 X213.0545 Y-106.8544
G01 X213.2309 Y-106.6856
G01 X213.5463 Y-106.5279
G01 X213.6303 Y-106.5129
G01 X214.0745 Y-106.5171
G01 X214.1393 Y-106.5387
G01 X214.4352 Y-106.6893
G01 X214.6027 Y-106.8510
G01 X214.6348 Y-106.8908
G01 X214.7831 Y-107.1841
G01 X214.8058 Y-107.2629
G01 X214.8044 Y-108.1278
G01 X214.7817 Y-108.1992
G01 X214.6311 Y-108.4950
G01 X214.4693 Y-108.6625
G01 X214.4294 Y-108.6948
G01 X214.1363 Y-108.8430
G01 X214.0680 Y-108.8643
G01 X213.6303 Y-108.8673
G01 X213.5794 Y-108.8619
G01 X213.5212 Y-108.8415
G01 X213.2254 Y-108.6909
G01 X213.0290 Y-108.4944
G01 X212.8788 Y-108.1992
G01 X212.8609 Y-108.1512
G01 X212.8531 Y-108.0901
G01 X212.8543 Y-107.2671
G00 Z2.0000
G00 X214.3198 Y-107.3477
G01 F60.00
G01 Z-0.0700
G01 F120.00
G01 X214.2299 Y-107.1679
G01 X214.1525 Y-107.0905
G01 X213.9727 Y-107.0006
G01 X213.6878 Y-107.0006
G01 X213.5080 Y-107.0905
G01 X213.4307 Y-107.1679
G01 X213.3408 Y-107.3477
G01 X213.3408 Y-108.0326
G01 X213.4307 Y-108.2123
G01 X213.5080 Y-108.2897
G01 X213.6878 Y-108.3796
G01 X213.9727 Y-108.3796
G01 X214.1525 Y-108.2897
G01 X214.2299 Y-108.2123
G01 X214.3198 Y-108.0326
G01 X214.3198 Y-107.3477
G00 Z2.0000
G00 X215.5371 Y-106.6666
G01 F60.00
G01 Z-0.0700
G01 F120.00
G01 X215.5730 Y-106.6048
G01 X215.6116 Y-106.5662
G01 X215.6677 Y-106.5326
G01 X215.7363 Y-106.5145
G01 X215.7908 Y-106.5145
G01 X215.8538 Y-106.5303
G01 X215.9018 Y-106.5560
G01 X215.9446 Y-106.5937
G01 X216.0677 Y-106.5326
G01 X216.1363 Y-106.5145
G01 X216.5775 Y-106.5134
G01 X216.6600 Y-106.5329
G01 X216.9393 Y-106.6720
G01 X216.9874 Y-106.7038
G01 X217.0278 Y-106.7472
G01 X217.1877 Y-107.0609
G01 X217.2073 Y-107.1534
G01 X217.2065 Y-108.6440
G01 X217.1959 Y-108.6974
G01 X217.1770 Y-108.7413
G01 X217.1383 Y-108.7934
G01 X217.1012 Y-108.8247
G01 X217.0538 Y-108.8499
G01 X216.9908 Y-108.8657
G01 X216.9363 Y-108.8657
G01 X216.8896 Y-108.8557
G01 X216.8310 Y-108.8280
G01 X216.7912 Y-108.7959
G01 X216.7590 Y-108.7561
G01 X216.7313 Y-108.6974
G01 X216.7198 Y-108.6234
G01 X216.7198 Y-107.2143
G01 X216.6485 Y-107.0719
G01 X216.5060 Y-107.0006
G01 X216.2212 Y-107.0006
G01 X216.0414 Y-107.0905
G01 X216.0074 Y-107.1244
G01 X216.0074 Y-108.6234
G01 X215.9978 Y-108.6910
G01 X215.9681 Y-108.7561
G01 X215.9208 Y-108.8097
G01 X215.8755 Y-108.8400
G01 X215.8078 Y-108.8632
G01 X215.7363 Y-108.8657
G01 X215.6672 Y-108.8474
G01 X215.6063 Y-108.8097
G01 X215.5623 Y-108.7610
G01 X215.5313 Y-108.6974
G01 X215.5198 Y-108.6234
G01 X215.5198 Y-106.7568
G01 X215.5371 Y-106.6666
G00 Z2.0000
G00 X216.2038 Y-110.2411
G01 F60.00
G01 Z-0.0700
G01 F120.00
G01 X216.2397 Y-110.1793
G01 X216.2782 Y-110.1407
G01 X216.3344 Y-110.1071
G01 X216.4030 Y-110.0890
G01 X217.4969 Y-110.0875
G01 X217.5646 Y-110.0971
G01 X217.8963 Y-110.2601
G01 X218.0724 Y-110.4287
G01 X218.1103 Y-110.4801
G01 X218.2484 Y-110.7556
G01 X218.2732 Y-110.8441
G01 X218.2740 Y-111.2680
G01 X218.2591 Y-111.3486
G01 X218.0977 Y-111.6695
G01 X217.9104 Y-111.8593
G01 X217.6060 Y-112.0161
G01 X217.5346 Y-112.0388
G01 X216.6741 Y-112.0418
G01 X216.6700 Y-113.1755
G01 X216.6436 Y-113.2492
G01 X216.5875 Y-113.3176
G01 X216.5261 Y-113.3554
G01 X216.4508 Y-113.3742
G01 X216.3563 Y-113.3636
G01 X216.2730 Y-113.3176
G01 X216.2137 Y-113.2432
G01 X216.1873 Y-113.1518
G01 X216.1864 Y-110.3313
G01 X216.2038 Y-110.2411
G00 Z2.0000
G00 X217.6192 Y-110.6650
G01 F60.00
G01 Z-0.0700
G01 F120.00
G01 X217.4394 Y-110.5751
G01 X216.6741 Y-110.5751
G01 X216.6741 Y-111.5541
G01 X217.4394 Y-111.5541
G01 X217.6192 Y-111.4642
G01 X217.6965 Y-111.3869
G01 X217.7864 Y-111.2071
G01 X217.7864 Y-110.9222
G01 X217.6965 Y-110.7424
G01 X217.6192 Y-110.6650
G00 Z2.0000
G00 X218.8543 Y-112.4416
G01 F60.00
G01 Z-0.0700
G01 F120.00
G01 X218.8788 Y-112.3556
G01 X219.0122 Y-112.0889
G01 X219.0483 Y-112.0357
G01 X219.1125 Y-111.9845
G01 X219.3879 Y-111.8465
G01 X219.4830 Y-111.8212
G01 X220.1060 Y-111.8208
G01 X220.1864 Y-111.7806
G01 X220.1864 Y-111.7222
G01 X220.1152 Y-111.5797
G01 X219.9727 Y-111.5085
G01 X219.5545 Y-111.5085
G01 X219.2914 Y-111.6339
G01 X219.2031 Y-111.6402
G01 X219.1125 Y-111.6114
G01 X219.0680 Y-111.5799
G01 X219.0258 Y-111.5307
G01 X219.0014 Y-111.4819
G01 X218.9869 Y-111.4119
G01 X218.9920 Y-111.3463
G01 X219.0091 Y-111.2955
G01 X219.0439 Y-111.2408
G01 X219.0835 Y-111.2033
G01 X219.3879 Y-111.0465
G01 X219.4526 Y-111.0249
G01 X220.0442 Y-111.0212
G01 X220.1267 Y-111.0407
G01 X220.4060 Y-111.1799
G01 X220.4541 Y-111.2116
G01 X220.4944 Y-111.2550
G01 X220.6544 Y-111.5687
G01 X220.6740 Y-111.6612
G01 X220.6732 Y-113.1518
G01 X220.6625 Y-113.2053
G01 X220.6436 Y-113.2492
G01 X220.6050 Y-113.3013
G01 X220.5678 Y-113.3326
G01 X220.5042 Y-113.3636
G01 X220.4336 Y-113.3750
G01 X220.3627 Y-113.3655
G01 X220.2986 Y-113.3364
G01 X220.2376 Y-113.3636
G01 X220.1775 Y-113.3747
G01 X219.4764 Y-113.3742
G01 X219.4005 Y-113.3552
G01 X219.1212 Y-113.2161
G01 X219.0680 Y-113.1799
G01 X219.0256 Y-113.1304
G01 X218.8681 Y-112.8153
G01 X218.8535 Y-112.7452
G01 X218.8543 Y-112.4416
G00 Z2.0000
G00 X220.1842 Y-112.3075
G01 F60.00
G01 Z-0.0700
G01 F120.00
G01 X219.5545 Y-112.3085
G01 X219.4120 Y-112.3797
G01 X219.3408 Y-112.5222
G01 X219.3408 Y-112.6737
G01 X219.4120 Y-112.8162
G01 X219.5545 Y-112.8875
G01 X220.1060 Y-112.8875
G01 X220.1864 Y-112.8473
G01 X220.1842 Y-112.3075
G00 Z2.0000
G00 X221.2540 Y-113.1108
G01 F60.00
G01 Z-0.0700
G01 F120.00
G01 X221.2704 Y-113.0411
G01 X221.3052 Y-112.9806
G01 X222.4619 Y-111.5085
G01 X221.4969 Y-111.5085
G01 X221.4068 Y-111.4911
G01 X221.3587 Y-111.4654
G01 X221.3106 Y-111.4219
G01 X221.2804 Y-111.3766
G01 X221.2583 Y-111.3147
G01 X221.2532 Y-111.2612
G01 X221.2627 Y-111.1971
G01 X221.2835 Y-111.1467
G01 X221.3222 Y-111.0946
G01 X221.4010 Y-111.0405
G01 X221.4969 Y-111.0208
G01 X222.9790 Y-111.0213
G01 X223.0600 Y-111.0407
G01 X223.1298 Y-111.0863
G01 X223.1802 Y-111.1527
G01 X223.2052 Y-111.2322
G01 X223.2020 Y-111.3155
G01 X223.1709 Y-111.3929
G01 X221.9986 Y-112.8875
G01 X222.9636 Y-112.8875
G01 X223.0538 Y-112.9048
G01 X223.1018 Y-112.9305
G01 X223.1499 Y-112.9740
G01 X223.1802 Y-113.0194
G01 X223.2022 Y-113.0812
G01 X223.2073 Y-113.1347
G01 X223.1978 Y-113.1988
G01 X223.1770 Y-113.2492
G01 X223.1383 Y-113.3013
G01 X223.0595 Y-113.3554
G01 X222.9670 Y-113.3750
G01 X221.4748 Y-113.3741
G01 X221.3836 Y-113.3471
G01 X221.3106 Y-113.2885
G01 X221.2646 Y-113.2053
G01 X221.2540 Y-113.1108
G00 Z2.0000
G00 X222.3397 Y-115.6761
G01 F60.00
G01 Z-0.0700
G01 F120.00
G01 X222.3730 Y-115.6204
G01 X222.4116 Y-115.5819
G01 X222.4677 Y-115.5483
G01 X222.5363 Y-115.5302
G01 X222.6145 Y-115.5341
G01 X222.6953 Y-115.5673
G01 X222.7563 Y-115.5402
G01 X222.8163 Y-115.5291
G01 X223.3636 Y-115.5286
G01 X223.4376 Y-115.5402
G01 X223.7630 Y-115.7013
G01 X223.9429 Y-115.8740
G01 X223.9801 Y-115.9271
G01 X224.1150 Y-116.1968
G01 X224.1398 Y-116.2853
G01 X224.1378 Y-117.1435
G01 X224.1165 Y-117.2118
G01 X223.9717 Y-117.4995
G01 X223.9360 Y-117.5449
G01 X223.7678 Y-117.7071
G01 X223.4376 Y-117.8714
G01 X223.3636 Y-117.8830
G01 X222.8074 Y-117.8818
G01 X222.8074 Y-118.5725
G01 X222.8020 Y-118.6233
G01 X222.7770 Y-118.6903
G01 X222.7208 Y-118.7588
G01 X222.6595 Y-118.7966
G01 X222.5841 Y-118.8154
G01 X222.4896 Y-118.8047
G01 X222.4063 Y-118.7588
G01 X222.3470 Y-118.6844
G01 X222.3207 Y-118.5930
G01 X222.3198 Y-115.7725
G01 X222.3397 Y-115.6761
G00 Z2.0000
G00 X223.4858 Y-116.1062
G01 F60.00
G01 Z-0.0700
G01 F120.00
G01 X223.3060 Y-116.0163
G01 X222.8878 Y-116.0163
G01 X222.8074 Y-116.0565
G01 X222.8074 Y-117.3551
G01 X222.8878 Y-117.3953
G01 X223.3060 Y-117.3953
G01 X223.4858 Y-117.3054
G01 X223.5632 Y-117.2280
G01 X223.6531 Y-117.0482
G01 X223.6531 Y-116.3634
G01 X223.5632 Y-116.1836
G01 X223.4858 Y-116.1062
G00 Z2.0000
G00 X224.7221 Y-116.6735
G01 F60.00
G01 Z-0.0700
G01 F120.00
G01 X224.8729 Y-116.0763
G01 X225.1910 Y-115.6002
G01 X225.6674 Y-115.2818
G01 X226.2577 Y-115.1319
G01 X226.3528 Y-115.1352
G01 X226.9202 Y-115.2792
G01 X227.3659 Y-115.5698
G01 X227.4331 Y-115.6372
G01 X227.7016 Y-116.0401
G01 X227.7361 Y-116.1251
G01 X227.7408 Y-116.8391
G01 X227.7292 Y-116.9131
G01 X227.5817 Y-117.2148
G01 X227.5499 Y-117.2630
G01 X227.4872 Y-117.3159
G01 X227.3057 Y-117.4074
G01 X227.3631 Y-117.4347
G01 X227.4028 Y-117.4668
G01 X227.4349 Y-117.5067
G01 X227.4626 Y-117.5654
G01 X227.4725 Y-117.6121
G01 X227.4725 Y-117.6666
G01 X227.4625 Y-117.7134
G01 X227.4347 Y-117.7720
G01 X227.3683 Y-117.8401
G01 X226.9313 Y-118.1276
G01 X226.3361 Y-118.2797
G01 X226.2411 Y-118.2764
G01 X225.6737 Y-118.1324
G01 X225.6283 Y-118.1087
G01 X225.1913 Y-117.8117
G01 X224.8940 Y-117.3744
G01 X224.8703 Y-117.3291
G01 X224.7270 Y-116.7649
G01 X224.7221 Y-116.6735
G00 Z2.0000
G00 X226.2212 Y-116.2830
G01 F60.00
G01 Z-0.0700
G01 F120.00
G01 X226.0414 Y-116.3729
G01 X225.9640 Y-116.4502
G01 X225.8741 Y-116.6300
G01 X225.8741 Y-116.7816
G01 X225.9640 Y-116.9614
G01 X226.0414 Y-117.0387
G01 X226.2212 Y-117.1286
G01 X226.3727 Y-117.1286
G01 X226.5525 Y-117.0387
G01 X226.5864 Y-117.0048
G01 X226.5864 Y-116.4068
G01 X226.5525 Y-116.3729
G01 X226.3727 Y-116.2830
G01 X226.2212 Y-116.2830
G00 Z2.0000
G00 X227.0589 Y-115.9551
G01 F60.00
G01 Z-0.0700
G01 F120.00
G01 X227.0741 Y-116.0391
G01 X227.0741 Y-116.9779
G01 X227.1818 Y-116.9241
G01 X227.2531 Y-116.7816
G01 X227.2531 Y-116.2463
G01 X227.0589 Y-115.9551
G00 Z2.0000
G00 X228.3213 Y-115.7452
G01 F60.00
G01 Z-0.0700
G01 F120.00
G01 X228.4604 Y-115.1800
G01 X228.4835 Y-115.1213
G01 X228.5245 Y-115.0667
G01 X228.7912 Y-114.8000
G01 X228.8545 Y-114.7544
G01 X229.1243 Y-114.6196
G01 X229.1860 Y-114.5994
G01 X229.7636 Y-114.5953
G01 X229.8600 Y-114.6152
G01 X230.1770 Y-114.7778
G01 X230.4693 Y-115.0667
G01 X230.5135 Y-115.1272
G01 X230.5335 Y-115.1800
G01 X230.6725 Y-115.7452
G01 X230.6725 Y-116.7330
G01 X230.5311 Y-117.3070
G01 X230.4908 Y-117.3870
G01 X230.1685 Y-117.7066
G01 X229.8726 Y-117.8572
G01 X229.8079 Y-117.8788
G01 X229.1913 Y-117.8798
G01 X229.1212 Y-117.8572
G01 X228.8168 Y-117.7004
G01 X228.5140 Y-117.4002
G01 X228.4804 Y-117.3511
G01 X228.4604 Y-117.2983
G01 X228.3207 Y-116.7263
G01 X228.3213 Y-115.7452
G00 Z2.0000
G00 X230.1864 Y-116.6758
G01 F60.00
G01 Z-0.0700
G01 F120.00
G01 X230.1864 Y-115.8025
G01 X230.0767 Y-115.3638
G01 X229.8858 Y-115.1729
G01 X229.7060 Y-115.0830
G01 X229.2878 Y-115.0830
G01 X229.1080 Y-115.1729
G01 X228.9171 Y-115.3638
G01 X228.8074 Y-115.8025
G01 X228.8074 Y-116.6758
G01 X228.9171 Y-117.1145
G01 X229.1080 Y-117.3054
G01 X229.2878 Y-117.3953
G01 X229.7060 Y-117.3953
G01 X229.8858 Y-117.3054
G01 X230.0767 Y-117.1145
G01 X230.1864 Y-116.6758
G00 Z2.0000
G00 X231.3875 Y-115.7519
G01 F60.00
G01 Z-0.0700
G01 F120.00
G01 X231.4038 Y-115.6823
G01 X231.4397 Y-115.6204
G01 X231.4927 Y-115.5712
G01 X231.5627 Y-115.5382
G01 X231.6336 Y-115.5287
G01 X231.7204 Y-115.5460
G01 X231.7823 Y-115.5819
G01 X231.8348 Y-115.6398
G01 X231.8645 Y-115.7049
G01 X231.8740 Y-115.7691
G01 X231.8741 Y-117.1816
G01 X231.9453 Y-117.3241
G01 X232.0878 Y-117.3953
G01 X232.3727 Y-117.3953
G01 X232.5525 Y-117.3054
G01 X232.5864 Y-117.2715
G01 X232.5864 Y-115.7725
G01 X232.6038 Y-115.6823
G01 X232.6397 Y-115.6204
G01 X232.6782 Y-115.5819
G01 X232.7344 Y-115.5483
G01 X232.7860 Y-115.5327
G01 X232.8575 Y-115.5302
G01 X232.9204 Y-115.5460
G01 X232.9823 Y-115.5819
G01 X233.0208 Y-115.6204
G01 X233.0567 Y-115.6823
G01 X233.0740 Y-115.7691
G01 X233.0741 Y-117.6391
G01 X233.0687 Y-117.6900
G01 X233.0468 Y-117.7511
G01 X233.0165 Y-117.7964
G01 X232.9823 Y-117.8297
G01 X232.9204 Y-117.8656
G01 X232.8508 Y-117.8820
G01 X232.7860 Y-117.8789
G01 X232.7401 Y-117.8656
G01 X232.6920 Y-117.8399
G01 X232.6493 Y-117.8022
G01 X232.5261 Y-117.8633
G01 X232.4575 Y-117.8814
G01 X232.0030 Y-117.8814
G01 X231.9339 Y-117.8630
G01 X231.6545 Y-117.7239
G01 X231.6115 Y-117.6963
G01 X231.5725 Y-117.6572
G01 X231.4107 Y-117.3451
G01 X231.3874 Y-117.2598
G01 X231.3875 Y-115.7519
G00 Z2.0000
G00 X233.5397 Y-115.6761
G01 F60.00
G01 Z-0.0700
G01 F120.00
G01 X233.5912 Y-115.6000
G01 X233.6734 Y-115.5460
G01 X233.7431 Y-115.5296
G01 X233.9198 Y-115.5286
G01 X233.9207 Y-114.8186
G01 X233.9371 Y-114.7490
G01 X233.9730 Y-114.6871
G01 X234.0457 Y-114.6258
G01 X234.1363 Y-114.5969
G01 X234.2311 Y-114.6049
G01 X234.3156 Y-114.6486
G01 X234.3770 Y-114.7213
G01 X234.4058 Y-114.8119
G01 X234.4074 Y-115.5286
G01 X234.8303 Y-115.5286
G01 X234.8978 Y-115.5382
G01 X234.9481 Y-115.5591
G01 X235.0050 Y-115.6025
G01 X235.0468 Y-115.6605
G01 X235.0689 Y-115.7224
G01 X235.0725 Y-115.7997
G01 X235.0468 Y-115.8844
G01 X235.0002 Y-115.9472
G01 X234.9261 Y-115.9966
G01 X234.8336 Y-116.0162
G01 X234.4074 Y-116.0163
G01 X234.4074 Y-117.1816
G01 X234.4787 Y-117.3241
G01 X234.6212 Y-117.3953
G01 X234.8811 Y-117.4007
G01 X234.9481 Y-117.4258
G01 X235.0165 Y-117.4819
G01 X235.0436 Y-117.5213
G01 X235.0645 Y-117.5716
G01 X235.0740 Y-117.6358
G01 X235.0700 Y-117.6834
G01 X235.0567 Y-117.7293
G01 X235.0311 Y-117.7774
G01 X234.9629 Y-117.8437
G01 X234.9042 Y-117.8714
G01 X234.8508 Y-117.8820
G01 X234.5127 Y-117.8775
G01 X234.4545 Y-117.8572
G01 X234.1791 Y-117.7192
G01 X234.1318 Y-117.6851
G01 X234.0924 Y-117.6385
G01 X233.9441 Y-117.3451
G01 X233.9213 Y-117.2664
G01 X233.9198 Y-116.0163
G01 X233.7193 Y-116.0122
G01 X233.6672 Y-115.9964
G01 X233.6063 Y-115.9588
G01 X233.5502 Y-115.8903
G01 X233.5250 Y-115.8225
G01 X233.5213 Y-115.7452
G01 X233.5397 Y-115.6761
G00 Z2.0000
G00 X235.5198 Y-114.8358
G01 F60.00
G01 Z-0.0700
G01 F120.00
G01 X235.5397 Y-114.7427
G01 X235.5888 Y-114.6692
G01 X235.6517 Y-114.6226
G01 X235.7431 Y-114.5962
G01 X235.8376 Y-114.6069
G01 X235.9156 Y-114.6486
G01 X235.9681 Y-114.7065
G01 X236.0022 Y-114.7891
G01 X236.0074 Y-114.8391
G01 X236.0074 Y-117.1816
G01 X236.0787 Y-117.3241
G01 X236.2906 Y-117.4310
G01 X236.3455 Y-117.4769
G01 X236.3875 Y-117.5428
G01 X236.4072 Y-117.6291
G01 X236.3978 Y-117.7068
G01 X236.3582 Y-117.7859
G01 X236.3017 Y-117.8400
G01 X236.2209 Y-117.8761
G01 X236.1497 Y-117.8825
G01 X236.0796 Y-117.8680
G01 X235.7879 Y-117.7239
G01 X235.7398 Y-117.6922
G01 X235.6804 Y-117.6178
G01 X235.5455 Y-117.3482
G01 X235.5250 Y-117.2892
G01 X235.5198 Y-117.2391
G01 X235.5198 Y-114.8358
G00 Z2.0000
G00 X236.8540 Y-116.2852
G01 F60.00
G01 Z-0.0700
G01 F120.00
G01 X236.8788 Y-116.1968
G01 X237.0169 Y-115.9213
G01 X237.0545 Y-115.8701
G01 X237.2309 Y-115.7013
G01 X237.5463 Y-115.5436
G01 X237.6303 Y-115.5286
G01 X238.0745 Y-115.5327
G01 X238.1393 Y-115.5544
G01 X238.4352 Y-115.7050
G01 X238.6027 Y-115.8667
G01 X238.6348 Y-115.9065
G01 X238.7831 Y-116.1998
G01 X238.8058 Y-116.2786
G01 X238.8044 Y-117.1435
G01 X238.7817 Y-117.2148
G01 X238.6311 Y-117.5107
G01 X238.4693 Y-117.6782
G01 X238.4294 Y-117.7105
G01 X238.1363 Y-117.8587
G01 X238.0680 Y-117.8800
G01 X237.6303 Y-117.8830
G01 X237.5794 Y-117.8775
G01 X237.5212 Y-117.8572
G01 X237.2254 Y-117.7066
G01 X237.0290 Y-117.5101
G01 X236.8788 Y-117.2148
G01 X236.8609 Y-117.1669
G01 X236.8531 Y-117.1058
G01 X236.8540 Y-116.2852
G00 Z2.0000
G00 X238.3198 Y-117.0482
G01 F60.00
G01 Z-0.0700
G01 F120.00
G01 X238.3198 Y-116.3634
G01 X238.2299 Y-116.1836
G01 X238.1525 Y-116.1062
G01 X237.9727 Y-116.0163
G01 X237.6878 Y-116.0163
G01 X237.5080 Y-116.1062
G01 X237.4307 Y-116.1836
G01 X237.3408 Y-116.3634
G01 X237.3408 Y-117.0482
G01 X237.4307 Y-117.2280
G01 X237.5080 Y-117.3054
G01 X237.6878 Y-117.3953
G01 X237.9727 Y-117.3953
G01 X238.1525 Y-117.3054
G01 X238.2299 Y-117.2280
G01 X238.3198 Y-117.0482
G00 Z2.0000
G00 X239.3876 Y-116.2828
G01 F60.00
G01 Z-0.0700
G01 F120.00
G01 X239.4122 Y-116.1968
G01 X239.5502 Y-115.9213
G01 X239.5878 Y-115.8701
G01 X239.7642 Y-115.7013
G01 X240.0796 Y-115.5436
G01 X240.1636 Y-115.5286
G01 X240.6078 Y-115.5327
G01 X240.6726 Y-115.5544
G01 X240.9685 Y-115.7050
G01 X241.1360 Y-115.8667
G01 X241.1681 Y-115.9065
G01 X241.3165 Y-116.1998
G01 X241.3392 Y-116.2786
G01 X241.3378 Y-117.1435
G01 X241.3150 Y-117.2148
G01 X241.1644 Y-117.5107
G01 X241.0027 Y-117.6782
G01 X240.9627 Y-117.7105
G01 X240.6696 Y-117.8587
G01 X240.6013 Y-117.8800
G01 X240.1636 Y-117.8830
G01 X240.1127 Y-117.8775
G01 X240.0545 Y-117.8572
G01 X239.7587 Y-117.7066
G01 X239.5623 Y-117.5101
G01 X239.4122 Y-117.2148
G01 X239.3943 Y-117.1669
G01 X239.3864 Y-117.1058
G01 X239.3876 Y-116.2828
G00 Z2.0000
G00 X240.8531 Y-116.3634
G01 F60.00
G01 Z-0.0700
G01 F120.00
G01 X240.7632 Y-116.1836
G01 X240.6858 Y-116.1062
G01 X240.5060 Y-116.0163
G01 X240.2212 Y-116.0163
G01 X240.0414 Y-116.1062
G01 X239.9640 Y-116.1836
G01 X239.8741 Y-116.3634
G01 X239.8741 Y-117.0482
G01 X239.9640 Y-117.2280
G01 X240.0414 Y-117.3054
G01 X240.2212 Y-117.3953
G01 X240.5060 Y-117.3953
G01 X240.6858 Y-117.3054
G01 X240.7632 Y-117.2280
G01 X240.8531 Y-117.0482
G01 X240.8531 Y-116.3634
G00 Z2.0000
G00 X242.0704 Y-114.7490
G01 F60.00
G01 Z-0.0700
G01 F120.00
G01 X242.1064 Y-114.6871
G01 X242.1593 Y-114.6379
G01 X242.2294 Y-114.6049
G01 X242.3003 Y-114.5954
G01 X242.3871 Y-114.6126
G01 X242.4490 Y-114.6486
G01 X242.4982 Y-114.7015
G01 X242.5292 Y-114.7651
G01 X242.5408 Y-114.8391
G01 X242.5408 Y-116.2505
G01 X243.1912 Y-115.6000
G01 X243.2457 Y-115.5591
G01 X243.3363 Y-115.5302
G01 X243.3908 Y-115.5302
G01 X243.4376 Y-115.5402
G01 X243.4815 Y-115.5591
G01 X243.5336 Y-115.5977
G01 X243.5877 Y-115.6766
G01 X243.6058 Y-115.7452
G01 X243.6058 Y-115.7997
G01 X243.5901 Y-115.8626
G01 X243.5542 Y-115.9245
G01 X242.8855 Y-116.5953
G01 X243.5587 Y-117.4928
G01 X243.5848 Y-117.5368
G01 X243.6072 Y-117.6292
G01 X243.5924 Y-117.7232
G01 X243.5428 Y-117.8044
G01 X243.4659 Y-117.8604
G01 X243.3973 Y-117.8806
G01 X243.3258 Y-117.8800
G01 X243.2575 Y-117.8586
G01 X243.1984 Y-117.8184
G01 X242.5408 Y-116.9484
G01 X242.5407 Y-117.6425
G01 X242.5312 Y-117.7067
G01 X242.5103 Y-117.7570
G01 X242.4693 Y-117.8116
G01 X242.4148 Y-117.8525
G01 X242.3470 Y-117.8777
G01 X242.2764 Y-117.8820
G01 X242.2068 Y-117.8656
G01 X242.1587 Y-117.8399
G01 X242.1064 Y-117.7912
G01 X242.0728 Y-117.7350
G01 X242.0531 Y-117.6391
G01 X242.0531 Y-114.8391
G01 X242.0704 Y-114.7490
G00 Z2.0000
G00 X244.1880 Y-117.4786
G01 F60.00
G01 Z-0.0700
G01 F120.00
G01 X244.2050 Y-117.4125
G01 X244.2397 Y-117.3538
G01 X244.4063 Y-117.1862
G01 X244.4486 Y-117.1574
G01 X244.4928 Y-117.1391
G01 X244.5841 Y-117.1296
G01 X244.6376 Y-117.1402
G01 X244.7018 Y-117.1717
G01 X244.8832 Y-117.3486
G01 X244.9120 Y-117.3909
G01 X244.9303 Y-117.4351
G01 X244.9398 Y-117.5263
G01 X244.9234 Y-117.5960
G01 X244.8977 Y-117.6440
G01 X244.7208 Y-117.8254
G01 X244.6785 Y-117.8542
G01 X244.6343 Y-117.8725
G01 X244.5431 Y-117.8820
G01 X244.4734 Y-117.8656
G01 X244.4254 Y-117.8399
G01 X244.2440 Y-117.6630
G01 X244.2152 Y-117.6207
G01 X244.1969 Y-117.5766
G01 X244.1876 Y-117.5297
G01 X244.1880 Y-117.4786
G00 Z2.0000
G00 X245.5207 Y-116.2852
G01 F60.00
G01 Z-0.0700
G01 F120.00
G01 X245.5455 Y-116.1968
G01 X245.6835 Y-115.9213
G01 X245.7212 Y-115.8701
G01 X245.8975 Y-115.7013
G01 X246.2229 Y-115.5402
G01 X246.2969 Y-115.5286
G01 X246.8680 Y-115.5316
G01 X246.9393 Y-115.5544
G01 X247.2437 Y-115.7112
G01 X247.2833 Y-115.7486
G01 X247.3209 Y-115.8095
G01 X247.3383 Y-115.8720
G01 X247.3398 Y-115.9264
G01 X247.3258 Y-115.9898
G01 X247.2916 Y-116.0526
G01 X247.2541 Y-116.0922
G01 X247.1932 Y-116.1298
G01 X247.1069 Y-116.1494
G01 X247.0353 Y-116.1417
G01 X246.7727 Y-116.0163
G01 X246.3545 Y-116.0163
G01 X246.1747 Y-116.1062
G01 X246.0973 Y-116.1836
G01 X246.0074 Y-116.3634
G01 X246.0074 Y-117.0482
G01 X246.0973 Y-117.2280
G01 X246.1747 Y-117.3054
G01 X246.3545 Y-117.3953
G01 X246.7727 Y-117.3953
G01 X247.0358 Y-117.2698
G01 X247.1241 Y-117.2635
G01 X247.1994 Y-117.2846
G01 X247.2541 Y-117.3194
G01 X247.2884 Y-117.3548
G01 X247.3165 Y-117.3998
G01 X247.3329 Y-117.4447
G01 X247.3407 Y-117.5091
G01 X247.3352 Y-117.5574
G01 X247.3181 Y-117.6083
G01 X247.2939 Y-117.6494
G01 X247.2490 Y-117.6963
G01 X247.2060 Y-117.7239
G01 X246.9261 Y-117.8633
G01 X246.8442 Y-117.8825
G01 X246.2526 Y-117.8788
G01 X246.1879 Y-117.8572
G01 X245.8835 Y-117.7004
G01 X245.6957 Y-117.5101
G01 X245.5455 Y-117.2148
G01 X245.5276 Y-117.1669
G01 X245.5198 Y-117.1058
G01 X245.5207 Y-116.2852
G00 Z2.0000
G00 X247.9210 Y-116.2828
G01 F60.00
G01 Z-0.0700
G01 F120.00
G01 X247.9455 Y-116.1968
G01 X248.0835 Y-115.9213
G01 X248.1212 Y-115.8701
G01 X248.2975 Y-115.7013
G01 X248.6130 Y-115.5436
G01 X248.6969 Y-115.5286
G01 X249.1412 Y-115.5327
G01 X249.2060 Y-115.5544
G01 X249.5018 Y-115.7050
G01 X249.6693 Y-115.8667
G01 X249.7015 Y-115.9065
G01 X249.8498 Y-116.1998
G01 X249.8725 Y-116.2786
G01 X249.8711 Y-117.1435
G01 X249.8484 Y-117.2148
G01 X249.6977 Y-117.5107
G01 X249.5360 Y-117.6782
G01 X249.4961 Y-117.7105
G01 X249.2029 Y-117.8587
G01 X249.1346 Y-117.8800
G01 X248.6969 Y-117.8830
G01 X248.6461 Y-117.8775
G01 X248.5879 Y-117.8572
G01 X248.2920 Y-117.7066
G01 X248.0957 Y-117.5101
G01 X247.9455 Y-117.2148
G01 X247.9276 Y-117.1669
G01 X247.9198 Y-117.1058
G01 X247.9210 Y-116.2828
G00 Z2.0000
G00 X249.3864 Y-116.3634
G01 F60.00
G01 Z-0.0700
G01 F120.00
G01 X249.2965 Y-116.1836
G01 X249.2192 Y-116.1062
G01 X249.0394 Y-116.0163
G01 X248.7545 Y-116.0163
G01 X248.5747 Y-116.1062
G01 X248.4973 Y-116.1836
G01 X248.4074 Y-116.3634
G01 X248.4074 Y-117.0482
G01 X248.4973 Y-117.2280
G01 X248.5747 Y-117.3054
G01 X248.7545 Y-117.3953
G01 X249.0394 Y-117.3953
G01 X249.2192 Y-117.3054
G01 X249.2965 Y-117.2280
G01 X249.3864 Y-117.0482
G01 X249.3864 Y-116.3634
G00 Z2.0000
G00 X250.6038 Y-115.6823
G01 F60.00
G01 Z-0.0700
G01 F120.00
G01 X250.6397 Y-115.6204
G01 X250.6782 Y-115.5819
G01 X250.7401 Y-115.5460
G01 X250.8097 Y-115.5296
G01 X250.8745 Y-115.5327
G01 X250.9204 Y-115.5460
G01 X250.9685 Y-115.5717
G01 X251.0112 Y-115.6094
G01 X251.1344 Y-115.5483
G01 X251.2030 Y-115.5302
G01 X251.6693 Y-115.5318
G01 X251.7393 Y-115.5544
G01 X252.0303 Y-115.7017
G01 X252.3212 Y-115.5544
G01 X252.3802 Y-115.5339
G01 X252.8303 Y-115.5286
G01 X252.9267 Y-115.5486
G01 X253.2437 Y-115.7112
G01 X253.2833 Y-115.7486
G01 X253.3150 Y-115.7968
G01 X253.4544 Y-116.0766
G01 X253.4732 Y-116.1518
G01 X253.4740 Y-117.6425
G01 X253.4567 Y-117.7293
G01 X253.4208 Y-117.7912
G01 X253.3823 Y-117.8297
G01 X253.3204 Y-117.8656
G01 X253.2508 Y-117.8820
G01 X253.1794 Y-117.8775
G01 X253.1124 Y-117.8525
G01 X253.0603 Y-117.8139
G01 X253.0169 Y-117.7570
G01 X252.9960 Y-117.7067
G01 X252.9864 Y-117.6391
G01 X252.9864 Y-116.2300
G01 X252.9152 Y-116.0875
G01 X252.7727 Y-116.0163
G01 X252.4878 Y-116.0163
G01 X252.3453 Y-116.0875
G01 X252.2741 Y-116.2300
G01 X252.2741 Y-117.6391
G01 X252.2625 Y-117.7131
G01 X252.2348 Y-117.7718
G01 X252.2027 Y-117.8116
G01 X252.1481 Y-117.8525
G01 X252.0978 Y-117.8734
G01 X252.0336 Y-117.8829
G01 X251.9794 Y-117.8775
G01 X251.9183 Y-117.8557
G01 X251.8730 Y-117.8254
G01 X251.8137 Y-117.7511
G01 X251.7873 Y-117.6597
G01 X251.7864 Y-116.2300
G01 X251.7152 Y-116.0875
G01 X251.5727 Y-116.0163
G01 X251.2878 Y-116.0163
G01 X251.1080 Y-116.1062
G01 X251.0741 Y-116.1401
G01 X251.0741 Y-117.6391
G01 X251.0625 Y-117.7131
G01 X251.0348 Y-117.7718
G01 X251.0027 Y-117.8116
G01 X250.9481 Y-117.8525
G01 X250.8978 Y-117.8734
G01 X250.8336 Y-117.8829
G01 X250.7794 Y-117.8775
G01 X250.7339 Y-117.8630
G01 X250.6782 Y-117.8297
G01 X250.6440 Y-117.7964
G01 X250.6137 Y-117.7511
G01 X250.5960 Y-117.7067
G01 X250.5865 Y-117.6425
G01 X250.5864 Y-115.7725
G01 X250.6038 Y-115.6823
G00 Z2.0000
G00 X226.9127 Y-117.4775
G01 F60.00
G01 Z-0.0700
G01 F120.00
G01 X226.8303 Y-117.4432
G01 X226.5363 Y-117.5920
G01 X226.4680 Y-117.6133
G01 X226.1497 Y-117.6158
G01 X226.0733 Y-117.5989
G01 X225.7587 Y-117.4399
G01 X225.5843 Y-117.2710
G01 X225.5471 Y-117.2178
G01 X225.4122 Y-116.9482
G01 X225.3869 Y-116.8530
G01 X225.3869 Y-116.5586
G01 X225.4064 Y-116.4761
G01 X225.5628 Y-116.1676
G01 X225.7501 Y-115.9778
G01 X226.0545 Y-115.8210
G01 X226.1259 Y-115.7983
G01 X226.4693 Y-115.7985
G01 X226.5267 Y-115.8152
G01 X226.6493 Y-115.8760
G01 X226.6927 Y-115.8379
G01 X226.7344 Y-115.8150
G01 X226.8252 Y-115.7955
G01 X226.7301 Y-115.7321
G01 X226.2969 Y-115.6238
G01 X225.8637 Y-115.7321
G01 X225.5394 Y-115.9483
G01 X225.3232 Y-116.2726
G01 X225.2149 Y-116.7058
G01 X225.3232 Y-117.1390
G01 X225.5394 Y-117.4633
G01 X225.8637 Y-117.6795
G01 X226.2969 Y-117.7878
G01 X226.7301 Y-117.6795
G01 X227.0249 Y-117.4830
G01 X226.9127 Y-117.4775
G00 Z2.0000
G00 X221.1198 Y-116.3634
G01 F60.00
G01 Z-0.0700
G01 F120.00
G01 X221.0299 Y-116.1836
G01 X220.9525 Y-116.1062
G01 X220.7727 Y-116.0163
G01 X220.4878 Y-116.0163
G01 X220.3080 Y-116.1062
G01 X220.2307 Y-116.1836
G01 X220.1408 Y-116.3634
G01 X220.1408 Y-117.0482
G01 X220.2307 Y-117.2280
G01 X220.3080 Y-117.3054
G01 X220.4878 Y-117.3953
G01 X220.7727 Y-117.3953
G01 X220.9525 Y-117.3054
G01 X221.0299 Y-117.2280
G01 X221.1198 Y-117.0482
G01 X221.1198 Y-116.3634
G00 Z2.0000
G00 X219.6543 Y-116.2828
G01 F60.00
G01 Z-0.0700
G01 F120.00
G01 X219.6788 Y-116.1968
G01 X219.8169 Y-115.9213
G01 X219.8545 Y-115.8701
G01 X220.0309 Y-115.7013
G01 X220.3463 Y-115.5436
G01 X220.4303 Y-115.5286
G01 X220.8745 Y-115.5327
G01 X220.9393 Y-115.5544
G01 X221.2352 Y-115.7050
G01 X221.4027 Y-115.8667
G01 X221.4348 Y-115.9065
G01 X221.5831 Y-116.1998
G01 X221.6058 Y-116.2786
G01 X221.6044 Y-117.1435
G01 X221.5817 Y-117.2148
G01 X221.4311 Y-117.5107
G01 X221.2693 Y-117.6782
G01 X221.2294 Y-117.7105
G01 X220.9363 Y-117.8587
G01 X220.8680 Y-117.8800
G01 X220.4303 Y-117.8830
G01 X220.3794 Y-117.8775
G01 X220.3212 Y-117.8572
G01 X220.0254 Y-117.7066
G01 X219.8290 Y-117.5101
G01 X219.6788 Y-117.2148
G01 X219.6609 Y-117.1669
G01 X219.6531 Y-117.1058
G01 X219.6543 Y-116.2828
G00 Z2.0000
G00 X217.2646 Y-114.7651
G01 F60.00
G01 Z-0.0700
G01 F120.00
G01 X217.2961 Y-114.7009
G01 X217.3449 Y-114.6486
G01 X217.4010 Y-114.6150
G01 X217.4697 Y-114.5969
G01 X217.5412 Y-114.5994
G01 X217.6089 Y-114.6226
G01 X217.6693 Y-114.6667
G01 X217.7103 Y-114.7213
G01 X217.7312 Y-114.7716
G01 X217.7407 Y-114.8358
G01 X217.7408 Y-115.5779
G01 X217.8130 Y-115.5436
G01 X217.8830 Y-115.5291
G01 X218.3003 Y-115.5287
G01 X218.3872 Y-115.5460
G01 X218.6756 Y-115.6893
G01 X218.7336 Y-115.7311
G01 X218.7770 Y-115.7880
G01 X218.9150 Y-116.0634
G01 X218.9355 Y-116.1224
G01 X218.9408 Y-116.1725
G01 X218.9398 Y-117.6597
G01 X218.9234 Y-117.7293
G01 X218.8977 Y-117.7774
G01 X218.8542 Y-117.8254
G01 X218.8089 Y-117.8557
G01 X218.7645 Y-117.8734
G01 X218.7003 Y-117.8829
G01 X218.6461 Y-117.8775
G01 X218.6005 Y-117.8630
G01 X218.5449 Y-117.8297
G01 X218.5106 Y-117.7964
G01 X218.4646 Y-117.7131
G01 X218.4531 Y-117.6391
G01 X218.4531 Y-116.2300
G01 X218.3818 Y-116.0875
G01 X218.2394 Y-116.0163
G01 X217.9545 Y-116.0163
G01 X217.7747 Y-116.1062
G01 X217.7408 Y-116.1401
G01 X217.7408 Y-117.6391
G01 X217.7312 Y-117.7067
G01 X217.7103 Y-117.7570
G01 X217.6693 Y-117.8116
G01 X217.6148 Y-117.8525
G01 X217.5645 Y-117.8734
G01 X217.4936 Y-117.8829
G01 X217.4229 Y-117.8714
G01 X217.3643 Y-117.8437
G01 X217.3106 Y-117.7964
G01 X217.2804 Y-117.7511
G01 X217.2583 Y-117.6892
G01 X217.2531 Y-117.6391
G01 X217.2531 Y-114.8391
G01 X217.2646 Y-114.7651
G00 Z2.0000
G00 X214.8540 Y-116.1518
G01 F60.00
G01 Z-0.0700
G01 F120.00
G01 X214.8788 Y-116.0634
G01 X215.0137 Y-115.7938
G01 X215.0510 Y-115.7406
G01 X215.1125 Y-115.6924
G01 X215.4294 Y-115.5382
G01 X215.4969 Y-115.5286
G01 X215.9478 Y-115.5341
G01 X216.0060 Y-115.5544
G01 X216.2726 Y-115.6877
G01 X216.3336 Y-115.7311
G01 X216.3737 Y-115.7822
G01 X216.3959 Y-115.8319
G01 X216.4072 Y-115.8958
G01 X216.4043 Y-115.9448
G01 X216.3900 Y-115.9961
G01 X216.3582 Y-116.0526
G01 X216.3208 Y-116.0922
G01 X216.2661 Y-116.1270
G01 X216.1907 Y-116.1481
G01 X216.1019 Y-116.1417
G01 X215.8394 Y-116.0163
G01 X215.5545 Y-116.0163
G01 X215.4120 Y-116.0875
G01 X215.3408 Y-116.2300
G01 X215.3408 Y-116.2482
G01 X215.4120 Y-116.3907
G01 X215.5545 Y-116.4620
G01 X215.8969 Y-116.4620
G01 X215.9646 Y-116.4716
G01 X216.2872 Y-116.6290
G01 X216.3326 Y-116.6634
G01 X216.3645 Y-116.7010
G01 X216.5292 Y-117.0318
G01 X216.5403 Y-117.0919
G01 X216.5407 Y-117.2425
G01 X216.5328 Y-117.3008
G01 X216.5150 Y-117.3482
G01 X216.3770 Y-117.6236
G01 X216.3326 Y-117.6815
G01 X216.2726 Y-117.7239
G01 X216.0060 Y-117.8572
G01 X215.9470 Y-117.8777
G01 X215.3636 Y-117.8830
G01 X215.3127 Y-117.8775
G01 X215.2576 Y-117.8587
G01 X214.9849 Y-117.7223
G01 X214.9269 Y-117.6805
G01 X214.8868 Y-117.6294
G01 X214.8646 Y-117.5797
G01 X214.8534 Y-117.5158
G01 X214.8563 Y-117.4668
G01 X214.8705 Y-117.4155
G01 X214.9023 Y-117.3590
G01 X214.9398 Y-117.3194
G01 X214.9945 Y-117.2846
G01 X215.0698 Y-117.2635
G01 X215.1586 Y-117.2699
G01 X215.4212 Y-117.3953
G01 X215.8394 Y-117.3953
G01 X215.9818 Y-117.3241
G01 X216.0531 Y-117.1816
G01 X216.0531 Y-117.1634
G01 X215.9818 Y-117.0209
G01 X215.8394 Y-116.9496
G01 X215.4969 Y-116.9496
G01 X215.4353 Y-116.9417
G01 X215.1212 Y-116.7906
G01 X215.0731 Y-116.7588
G01 X215.0168 Y-116.6902
G01 X214.8681 Y-116.3898
G01 X214.8535 Y-116.3197
G01 X214.8540 Y-116.1518
G00 Z2.0000
G00 X212.7313 Y-114.7651
G01 F60.00
G01 Z-0.0700
G01 F120.00
G01 X212.7628 Y-114.7009
G01 X212.8116 Y-114.6486
G01 X212.8734 Y-114.6126
G01 X212.9602 Y-114.5954
G01 X213.0376 Y-114.6069
G01 X213.1018 Y-114.6383
G01 X213.1542 Y-114.6871
G01 X213.1959 Y-114.7651
G01 X213.2074 Y-114.8391
G01 X213.2074 Y-116.2505
G01 X213.8578 Y-115.6000
G01 X213.9124 Y-115.5591
G01 X214.0030 Y-115.5302
G01 X214.0575 Y-115.5302
G01 X214.1042 Y-115.5402
G01 X214.1481 Y-115.5591
G01 X214.2002 Y-115.5977
G01 X214.2544 Y-115.6766
G01 X214.2725 Y-115.7452
G01 X214.2725 Y-115.7997
G01 X214.2568 Y-115.8626
G01 X214.2208 Y-115.9245
G01 X213.5522 Y-116.5953
G01 X214.2253 Y-117.4928
G01 X214.2515 Y-117.5368
G01 X214.2738 Y-117.6292
G01 X214.2591 Y-117.7232
G01 X214.2095 Y-117.8044
G01 X214.1326 Y-117.8604
G01 X214.0640 Y-117.8806
G01 X213.9924 Y-117.8800
G01 X213.9242 Y-117.8586
G01 X213.8650 Y-117.8184
G01 X213.2074 Y-116.9484
G01 X213.2073 Y-117.6425
G01 X213.1978 Y-117.7067
G01 X213.1770 Y-117.7570
G01 X213.1360 Y-117.8116
G01 X213.0815 Y-117.8525
G01 X213.0136 Y-117.8778
G01 X212.9431 Y-117.8820
G01 X212.8734 Y-117.8656
G01 X212.8254 Y-117.8399
G01 X212.7730 Y-117.7912
G01 X212.7394 Y-117.7350
G01 X212.7198 Y-117.6391
G01 X212.7198 Y-114.8391
G01 X212.7313 Y-114.7651
G00 Z2.0000
G00 X211.0038 Y-115.6823
G01 F60.00
G01 Z-0.0700
G01 F120.00
G01 X211.0397 Y-115.6204
G01 X211.0782 Y-115.5819
G01 X211.1344 Y-115.5483
G01 X211.2030 Y-115.5302
G01 X211.2745 Y-115.5327
G01 X211.3422 Y-115.5559
G01 X211.4027 Y-115.6000
G01 X211.4459 Y-115.6587
G01 X211.6576 Y-115.5529
G01 X211.7135 Y-115.5339
G01 X212.0508 Y-115.5296
G01 X212.1267 Y-115.5486
G01 X212.2027 Y-115.6000
G01 X212.2468 Y-115.6605
G01 X212.2725 Y-115.7452
G01 X212.2700 Y-115.8167
G01 X212.2542 Y-115.8689
G01 X212.2208 Y-115.9245
G01 X212.1823 Y-115.9630
G01 X212.1261 Y-115.9966
G01 X212.0575 Y-116.0147
G01 X211.8212 Y-116.0163
G01 X211.6414 Y-116.1062
G01 X211.5640 Y-116.1836
G01 X211.4741 Y-116.3634
G01 X211.4725 Y-117.6664
G01 X211.4468 Y-117.7511
G01 X211.4027 Y-117.8116
G01 X211.3422 Y-117.8557
G01 X211.2575 Y-117.8814
G01 X211.1627 Y-117.8734
G01 X211.0782 Y-117.8297
G01 X211.0169 Y-117.7570
G01 X210.9880 Y-117.6664
G01 X210.9864 Y-115.7725
G01 X211.0038 Y-115.6823
G00 Z2.0000
G00 X209.7864 Y-117.0482
G01 F60.00
G01 Z-0.0700
G01 F120.00
G01 X209.7864 Y-116.3634
G01 X209.6965 Y-116.1836
G01 X209.6192 Y-116.1062
G01 X209.4394 Y-116.0163
G01 X209.1545 Y-116.0163
G01 X208.9747 Y-116.1062
G01 X208.8973 Y-116.1836
G01 X208.8074 Y-116.3634
G01 X208.8074 Y-117.0482
G01 X208.8973 Y-117.2280
G01 X208.9747 Y-117.3054
G01 X209.1545 Y-117.3953
G01 X209.4394 Y-117.3953
G01 X209.6192 Y-117.3054
G01 X209.6965 Y-117.2280
G01 X209.7864 Y-117.0482
G00 Z2.0000
G00 X208.3207 Y-116.2852
G01 F60.00
G01 Z-0.0700
G01 F120.00
G01 X208.3455 Y-116.1968
G01 X208.4835 Y-115.9213
G01 X208.5212 Y-115.8701
G01 X208.6976 Y-115.7013
G01 X209.0130 Y-115.5436
G01 X209.0969 Y-115.5286
G01 X209.5412 Y-115.5327
G01 X209.6060 Y-115.5544
G01 X209.9018 Y-115.7050
G01 X210.0693 Y-115.8667
G01 X210.1015 Y-115.9065
G01 X210.2498 Y-116.1998
G01 X210.2725 Y-116.2786
G01 X210.2711 Y-117.1435
G01 X210.2484 Y-117.2148
G01 X210.0977 Y-117.5107
G01 X209.9360 Y-117.6782
G01 X209.8961 Y-117.7105
G01 X209.6029 Y-117.8587
G01 X209.5346 Y-117.8800
G01 X209.0969 Y-117.8830
G01 X209.0461 Y-117.8775
G01 X208.9879 Y-117.8572
G01 X208.6920 Y-117.7066
G01 X208.4957 Y-117.5101
G01 X208.3455 Y-117.2148
G01 X208.3276 Y-117.1669
G01 X208.3198 Y-117.1058
G01 X208.3207 Y-116.2852
G00 Z2.0000
G00 X204.9954 Y-114.7739
G01 F60.00
G01 Z-0.0700
G01 F120.00
G01 X205.0244 Y-114.7085
G01 X205.0712 Y-114.6544
G01 X205.1317 Y-114.6162
G01 X205.2007 Y-114.5972
G01 X205.2890 Y-114.6025
G01 X205.3551 Y-114.6298
G01 X205.4105 Y-114.6750
G01 X205.4504 Y-114.7344
G01 X205.4675 Y-114.7827
G01 X205.9103 Y-116.6426
G01 X206.2032 Y-115.5504
G01 X206.2388 Y-115.4883
G01 X206.2908 Y-115.4392
G01 X206.3548 Y-115.4073
G01 X206.4243 Y-115.3954
G01 X206.4963 Y-115.4045
G01 X206.5616 Y-115.4338
G01 X206.6156 Y-115.4807
G01 X206.6536 Y-115.5413
G01 X206.9502 Y-116.6426
G01 X207.4073 Y-114.7406
G01 X207.4348 Y-114.6935
G01 X207.4855 Y-114.6430
G01 X207.5486 Y-114.6094
G01 X207.6125 Y-114.5960
G01 X207.6834 Y-114.6012
G01 X207.7350 Y-114.6190
G01 X207.7944 Y-114.6589
G01 X207.8361 Y-114.7085
G01 X207.8704 Y-114.7972
G01 X207.8740 Y-114.8457
G01 X207.8675 Y-114.8956
G01 X207.2008 Y-117.6956
G01 X207.1616 Y-117.7815
G01 X207.0949 Y-117.8445
G01 X207.0491 Y-117.8675
G01 X207.0023 Y-117.8799
G01 X206.9546 Y-117.8828
G01 X206.9039 Y-117.8755
G01 X206.8589 Y-117.8593
G01 X206.8052 Y-117.8244
G01 X206.7463 Y-117.7497
G01 X206.7280 Y-117.7020
G01 X206.4303 Y-116.5855
G01 X206.1325 Y-117.7020
G01 X206.1045 Y-117.7670
G01 X206.0727 Y-117.8080
G01 X206.0197 Y-117.8498
G01 X205.9724 Y-117.8709
G01 X205.9053 Y-117.8828
G01 X205.8382 Y-117.8757
G01 X205.7894 Y-117.8580
G01 X205.7336 Y-117.8201
G01 X205.6990 Y-117.7815
G01 X205.6597 Y-117.6956
G01 X204.9931 Y-114.8956
G01 X204.9868 Y-114.8277
G01 X204.9954 Y-114.7739
G00 Z2.0000
G00 X203.7876 Y-117.4818
G01 F60.00
G01 Z-0.0700
G01 F120.00
G01 X203.8038 Y-117.4156
G01 X203.8295 Y-117.3676
G01 X203.9936 Y-117.1977
G01 X204.0702 Y-117.1472
G01 X204.1160 Y-117.1333
G01 X204.1670 Y-117.1287
G01 X204.2343 Y-117.1391
G01 X204.2991 Y-117.1697
G01 X204.4694 Y-117.3334
G01 X204.5222 Y-117.4125
G01 X204.5361 Y-117.4582
G01 X204.5407 Y-117.5092
G01 X204.5303 Y-117.5766
G01 X204.4997 Y-117.6413
G01 X204.3360 Y-117.8116
G01 X204.2569 Y-117.8644
G01 X204.2112 Y-117.8783
G01 X204.1602 Y-117.8829
G01 X204.0928 Y-117.8725
G01 X204.0281 Y-117.8419
G01 X203.8555 Y-117.6758
G01 X203.8257 Y-117.6384
G01 X203.7980 Y-117.5798
G01 X203.7876 Y-117.5297
G01 X203.7876 Y-117.4818
G00 Z2.0000
G00 X201.5207 Y-116.1518
G01 F60.00
G01 Z-0.0700
G01 F120.00
G01 X201.5455 Y-116.0634
G01 X201.6804 Y-115.7938
G01 X201.7176 Y-115.7406
G01 X201.7791 Y-115.6924
G01 X202.0961 Y-115.5382
G01 X202.1636 Y-115.5286
G01 X202.6145 Y-115.5341
G01 X202.6726 Y-115.5544
G01 X202.9393 Y-115.6877
G01 X203.0003 Y-115.7311
G01 X203.0404 Y-115.7822
G01 X203.0626 Y-115.8319
G01 X203.0738 Y-115.8958
G01 X203.0709 Y-115.9448
G01 X203.0567 Y-115.9961
G01 X203.0249 Y-116.0526
G01 X202.9874 Y-116.0922
G01 X202.9327 Y-116.1270
G01 X202.8574 Y-116.1481
G01 X202.7686 Y-116.1417
G01 X202.5060 Y-116.0163
G01 X202.2212 Y-116.0163
G01 X202.0787 Y-116.0875
G01 X202.0074 Y-116.2300
G01 X202.0074 Y-116.2482
G01 X202.0787 Y-116.3907
G01 X202.2212 Y-116.4620
G01 X202.5636 Y-116.4620
G01 X202.6312 Y-116.4716
G01 X202.9539 Y-116.6290
G01 X202.9993 Y-116.6634
G01 X203.0311 Y-116.7010
G01 X203.1959 Y-117.0318
G01 X203.2070 Y-117.0919
G01 X203.2073 Y-117.2425
G01 X203.1995 Y-117.3008
G01 X203.1817 Y-117.3482
G01 X203.0437 Y-117.6236
G01 X202.9993 Y-117.6815
G01 X202.9393 Y-117.7239
G01 X202.6726 Y-117.8572
G01 X202.6136 Y-117.8778
G01 X202.0303 Y-117.8830
G01 X201.9794 Y-117.8775
G01 X201.9243 Y-117.8587
G01 X201.6516 Y-117.7223
G01 X201.5935 Y-117.6805
G01 X201.5535 Y-117.6294
G01 X201.5313 Y-117.5797
G01 X201.5200 Y-117.5158
G01 X201.5229 Y-117.4668
G01 X201.5371 Y-117.4155
G01 X201.5690 Y-117.3590
G01 X201.6064 Y-117.3194
G01 X201.6611 Y-117.2846
G01 X201.7365 Y-117.2635
G01 X201.8252 Y-117.2699
G01 X202.0878 Y-117.3953
G01 X202.5060 Y-117.3953
G01 X202.6485 Y-117.3241
G01 X202.7198 Y-117.1816
G01 X202.7198 Y-117.1634
G01 X202.6485 Y-117.0209
G01 X202.5060 Y-116.9496
G01 X202.1636 Y-116.9496
G01 X202.1019 Y-116.9417
G01 X201.7879 Y-116.7906
G01 X201.7398 Y-116.7588
G01 X201.6835 Y-116.6902
G01 X201.5347 Y-116.3898
G01 X201.5202 Y-116.3197
G01 X201.5207 Y-116.1518
G00 Z2.0000
G00 X199.9371 Y-115.6823
G01 F60.00
G01 Z-0.0700
G01 F120.00
G01 X199.9730 Y-115.6204
G01 X200.0116 Y-115.5819
G01 X200.0677 Y-115.5483
G01 X200.1363 Y-115.5302
G01 X200.2078 Y-115.5327
G01 X200.2755 Y-115.5559
G01 X200.3360 Y-115.6000
G01 X200.3792 Y-115.6587
G01 X200.5909 Y-115.5529
G01 X200.6469 Y-115.5339
G01 X200.9841 Y-115.5296
G01 X201.0600 Y-115.5486
G01 X201.1360 Y-115.6000
G01 X201.1802 Y-115.6605
G01 X201.2058 Y-115.7452
G01 X201.2033 Y-115.8167
G01 X201.1875 Y-115.8689
G01 X201.1542 Y-115.9245
G01 X201.1156 Y-115.9630
G01 X201.0595 Y-115.9966
G01 X200.9908 Y-116.0147
G01 X200.7545 Y-116.0163
G01 X200.5747 Y-116.1062
G01 X200.4973 Y-116.1836
G01 X200.4074 Y-116.3634
G01 X200.4058 Y-117.6664
G01 X200.3802 Y-117.7511
G01 X200.3360 Y-117.8116
G01 X200.2755 Y-117.8557
G01 X200.1908 Y-117.8814
G01 X200.0961 Y-117.8734
G01 X200.0116 Y-117.8297
G01 X199.9502 Y-117.7570
G01 X199.9213 Y-117.6664
G01 X199.9198 Y-115.7725
G01 X199.9371 Y-115.6823
G00 Z2.0000
G00 X197.9453 Y-116.0875
G01 F60.00
G01 Z-0.0700
G01 F120.00
G01 X197.8741 Y-116.2300
G01 X197.8741 Y-116.4084
G01 X198.7198 Y-116.2392
G01 X198.6485 Y-116.0875
G01 X198.5060 Y-116.0163
G01 X198.0878 Y-116.0163
G01 X197.9453 Y-116.0875
G00 Z2.0000
G00 X197.3874 Y-116.1518
G01 F60.00
G01 Z-0.0700
G01 F120.00
G01 X197.4122 Y-116.0634
G01 X197.5471 Y-115.7938
G01 X197.5843 Y-115.7406
G01 X197.6545 Y-115.6877
G01 X197.9691 Y-115.5365
G01 X198.0303 Y-115.5286
G01 X198.6079 Y-115.5328
G01 X198.6696 Y-115.5529
G01 X198.9393 Y-115.6877
G01 X198.9954 Y-115.7265
G01 X199.0484 Y-115.7968
G01 X199.1831 Y-116.0665
G01 X199.2033 Y-116.1282
G01 X199.2063 Y-116.4630
G01 X199.1890 Y-116.5322
G01 X199.1543 Y-116.5910
G01 X199.0962 Y-116.6437
G01 X199.0147 Y-116.6775
G01 X197.8741 Y-116.9057
G01 X197.8741 Y-117.1816
G01 X197.9453 Y-117.3241
G01 X198.0878 Y-117.3953
G01 X198.5060 Y-117.3953
G01 X198.7691 Y-117.2698
G01 X198.8574 Y-117.2635
G01 X198.9266 Y-117.2818
G01 X198.9684 Y-117.3049
G01 X199.0096 Y-117.3406
G01 X199.0468 Y-117.3938
G01 X199.0663 Y-117.4447
G01 X199.0740 Y-117.5106
G01 X199.0672 Y-117.5631
G01 X199.0437 Y-117.6236
G01 X199.0122 Y-117.6681
G01 X198.9423 Y-117.7223
G01 X198.6726 Y-117.8572
G01 X198.6136 Y-117.8778
G01 X198.5636 Y-117.8830
G01 X197.9794 Y-117.8775
G01 X197.9212 Y-117.8572
G01 X197.6545 Y-117.7239
G01 X197.5946 Y-117.6815
G01 X197.5455 Y-117.6148
G01 X197.4107 Y-117.3451
G01 X197.3894 Y-117.2768
G01 X197.3874 Y-116.1518
G00 Z2.0000
G00 X195.2646 Y-114.7651
G01 F60.00
G01 Z-0.0700
G01 F120.00
G01 X195.2961 Y-114.7009
G01 X195.3449 Y-114.6486
G01 X195.4068 Y-114.6126
G01 X195.4936 Y-114.5954
G01 X195.5709 Y-114.6069
G01 X195.6352 Y-114.6383
G01 X195.6875 Y-114.6871
G01 X195.7292 Y-114.7651
G01 X195.7408 Y-114.8391
G01 X195.7408 Y-116.2505
G01 X196.3912 Y-115.6000
G01 X196.4457 Y-115.5591
G01 X196.5363 Y-115.5302
G01 X196.5908 Y-115.5302
G01 X196.6376 Y-115.5402
G01 X196.6815 Y-115.5591
G01 X196.7336 Y-115.5977
G01 X196.7877 Y-115.6766
G01 X196.8058 Y-115.7452
G01 X196.8058 Y-115.7997
G01 X196.7901 Y-115.8626
G01 X196.7542 Y-115.9245
G01 X196.0856 Y-116.5953
G01 X196.7587 Y-117.4928
G01 X196.7848 Y-117.5368
G01 X196.8072 Y-117.6292
G01 X196.7924 Y-117.7232
G01 X196.7428 Y-117.8044
G01 X196.6660 Y-117.8604
G01 X196.5973 Y-117.8806
G01 X196.5258 Y-117.8800
G01 X196.4575 Y-117.8586
G01 X196.3984 Y-117.8184
G01 X195.7408 Y-116.9484
G01 X195.7407 Y-117.6425
G01 X195.7312 Y-117.7067
G01 X195.7103 Y-117.7570
G01 X195.6693 Y-117.8116
G01 X195.6148 Y-117.8525
G01 X195.5469 Y-117.8778
G01 X195.4764 Y-117.8820
G01 X195.4068 Y-117.8656
G01 X195.3587 Y-117.8399
G01 X195.3064 Y-117.7912
G01 X195.2728 Y-117.7350
G01 X195.2531 Y-117.6391
G01 X195.2531 Y-114.8391
G01 X195.2646 Y-114.7651
G00 Z2.0000
G00 X192.7371 Y-115.6823
G01 F60.00
G01 Z-0.0700
G01 F120.00
G01 X192.7730 Y-115.6204
G01 X192.8116 Y-115.5819
G01 X192.8677 Y-115.5483
G01 X192.9363 Y-115.5302
G01 X192.9908 Y-115.5302
G01 X193.0538 Y-115.5460
G01 X193.1018 Y-115.5717
G01 X193.1446 Y-115.6094
G01 X193.2677 Y-115.5483
G01 X193.3363 Y-115.5302
G01 X193.7775 Y-115.5291
G01 X193.8600 Y-115.5486
G01 X194.1393 Y-115.6877
G01 X194.1874 Y-115.7194
G01 X194.2278 Y-115.7629
G01 X194.3877 Y-116.0766
G01 X194.4073 Y-116.1691
G01 X194.4065 Y-117.6597
G01 X194.3959 Y-117.7131
G01 X194.3770 Y-117.7570
G01 X194.3383 Y-117.8091
G01 X194.3012 Y-117.8404
G01 X194.2538 Y-117.8656
G01 X194.1908 Y-117.8814
G01 X194.1363 Y-117.8814
G01 X194.0896 Y-117.8714
G01 X194.0310 Y-117.8437
G01 X193.9912 Y-117.8116
G01 X193.9590 Y-117.7718
G01 X193.9313 Y-117.7131
G01 X193.9198 Y-117.6391
G01 X193.9198 Y-116.2300
G01 X193.8485 Y-116.0875
G01 X193.7060 Y-116.0163
G01 X193.4212 Y-116.0163
G01 X193.2414 Y-116.1062
G01 X193.2074 Y-116.1401
G01 X193.2074 Y-117.6391
G01 X193.1978 Y-117.7067
G01 X193.1681 Y-117.7718
G01 X193.1208 Y-117.8254
G01 X193.0755 Y-117.8557
G01 X193.0078 Y-117.8789
G01 X192.9363 Y-117.8814
G01 X192.8672 Y-117.8630
G01 X192.8063 Y-117.8254
G01 X192.7623 Y-117.7767
G01 X192.7313 Y-117.7131
G01 X192.7198 Y-117.6391
G01 X192.7198 Y-115.7725
G01 X192.7371 Y-115.6823
G00 Z2.0000
G00 X191.3980 Y-115.6985
G01 F60.00
G01 Z-0.0700
G01 F120.00
G01 X191.4397 Y-115.6204
G01 X191.4976 Y-115.5679
G01 X191.5802 Y-115.5339
G01 X191.6575 Y-115.5302
G01 X191.7422 Y-115.5559
G01 X191.8027 Y-115.6000
G01 X191.8468 Y-115.6605
G01 X191.8725 Y-115.7452
G01 X191.8725 Y-117.6664
G01 X191.8468 Y-117.7511
G01 X191.8027 Y-117.8116
G01 X191.7422 Y-117.8557
G01 X191.6575 Y-117.8814
G01 X191.5627 Y-117.8734
G01 X191.4782 Y-117.8297
G01 X191.4169 Y-117.7570
G01 X191.3880 Y-117.6664
G01 X191.3864 Y-115.7725
G01 X191.3980 Y-115.6985
G00 Z2.0000
G00 X191.2541 Y-114.9519
G01 F60.00
G01 Z-0.0700
G01 F120.00
G01 X191.2646 Y-114.8985
G01 X191.2961 Y-114.8342
G01 X191.4603 Y-114.6644
G01 X191.5369 Y-114.6139
G01 X191.5827 Y-114.6000
G01 X191.6336 Y-114.5954
G01 X191.7010 Y-114.6058
G01 X191.7657 Y-114.6364
G01 X191.9360 Y-114.8000
G01 X191.9889 Y-114.8791
G01 X192.0027 Y-114.9249
G01 X192.0073 Y-114.9758
G01 X191.9969 Y-115.0432
G01 X191.9663 Y-115.1079
G01 X191.8026 Y-115.2783
G01 X191.7235 Y-115.3311
G01 X191.6779 Y-115.3449
G01 X191.6269 Y-115.3496
G01 X191.5595 Y-115.3391
G01 X191.4948 Y-115.3085
G01 X191.3222 Y-115.1424
G01 X191.2835 Y-115.0903
G01 X191.2646 Y-115.0465
G01 X191.2541 Y-114.9519
G00 Z2.0000
G00 X188.8704 Y-114.7490
G01 F60.00
G01 Z-0.0700
G01 F120.00
G01 X188.9064 Y-114.6871
G01 X188.9449 Y-114.6486
G01 X189.0068 Y-114.6126
G01 X189.0764 Y-114.5962
G01 X190.6969 Y-114.5953
G01 X190.7709 Y-114.6069
G01 X190.8352 Y-114.6383
G01 X190.8875 Y-114.6871
G01 X190.9292 Y-114.7651
G01 X190.9398 Y-114.8597
G01 X190.9135 Y-114.9511
G01 X190.8542 Y-115.0254
G01 X190.7871 Y-115.0656
G01 X190.7003 Y-115.0829
G01 X190.1408 Y-115.0830
G01 X190.1398 Y-117.6597
G01 X190.1234 Y-117.7293
G01 X190.0875 Y-117.7912
G01 X190.0345 Y-117.8404
G01 X189.9709 Y-117.8714
G01 X189.9242 Y-117.8814
G01 X189.8697 Y-117.8814
G01 X189.8068 Y-117.8656
G01 X189.7643 Y-117.8437
G01 X189.7245 Y-117.8116
G01 X189.6924 Y-117.7718
G01 X189.6704 Y-117.7293
G01 X189.6547 Y-117.6664
G01 X189.6531 Y-115.0830
G01 X189.0936 Y-115.0829
G01 X189.0005 Y-115.0630
G01 X188.9245 Y-115.0116
G01 X188.8728 Y-114.9350
G01 X188.8532 Y-114.8425
G01 X188.8704 Y-114.7490
G00 Z2.0000
G00 X187.7876 Y-117.4818
G01 F60.00
G01 Z-0.0700
G01 F120.00
G01 X187.8038 Y-117.4156
G01 X187.8295 Y-117.3676
G01 X187.9936 Y-117.1977
G01 X188.0702 Y-117.1472
G01 X188.1160 Y-117.1333
G01 X188.1670 Y-117.1287
G01 X188.2343 Y-117.1391
G01 X188.2991 Y-117.1697
G01 X188.4694 Y-117.3334
G01 X188.5222 Y-117.4125
G01 X188.5361 Y-117.4582
G01 X188.5407 Y-117.5092
G01 X188.5303 Y-117.5766
G01 X188.4997 Y-117.6413
G01 X188.3360 Y-117.8116
G01 X188.2569 Y-117.8644
G01 X188.2112 Y-117.8783
G01 X188.1602 Y-117.8829
G01 X188.0928 Y-117.8725
G01 X188.0281 Y-117.8419
G01 X187.8555 Y-117.6758
G01 X187.8257 Y-117.6384
G01 X187.7980 Y-117.5798
G01 X187.7876 Y-117.5297
G01 X187.7876 Y-117.4818
G00 Z2.0000
G00 X186.0878 Y-116.0163
G01 F60.00
G01 Z-0.0700
G01 F120.00
G01 X185.9080 Y-116.1062
G01 X185.8307 Y-116.1836
G01 X185.7408 Y-116.3634
G01 X185.7408 Y-117.0482
G01 X185.8307 Y-117.2280
G01 X185.9080 Y-117.3054
G01 X186.0878 Y-117.3953
G01 X186.5060 Y-117.3953
G01 X186.5864 Y-117.3551
G01 X186.5864 Y-116.0565
G01 X186.5060 Y-116.0163
G01 X186.0878 Y-116.0163
G00 Z2.0000
G00 X185.2543 Y-116.2828
G01 F60.00
G01 Z-0.0700
G01 F120.00
G01 X185.2730 Y-116.2094
G01 X185.4258 Y-115.9064
G01 X185.5946 Y-115.7301
G01 X185.6457 Y-115.6924
G01 X185.9243 Y-115.5529
G01 X185.9866 Y-115.5326
G01 X186.5864 Y-115.5298
G01 X186.5865 Y-114.8358
G01 X186.5960 Y-114.7716
G01 X186.6137 Y-114.7272
G01 X186.6440 Y-114.6819
G01 X186.6782 Y-114.6486
G01 X186.7344 Y-114.6150
G01 X186.7860 Y-114.5994
G01 X186.8508 Y-114.5962
G01 X186.9042 Y-114.6069
G01 X186.9629 Y-114.6346
G01 X187.0050 Y-114.6692
G01 X187.0568 Y-114.7490
G01 X187.0741 Y-114.8391
G01 X187.0741 Y-117.6391
G01 X187.0542 Y-117.7355
G01 X187.0002 Y-117.8139
G01 X186.9261 Y-117.8633
G01 X186.8508 Y-117.8820
G01 X186.7794 Y-117.8775
G01 X186.6986 Y-117.8443
G01 X186.6376 Y-117.8714
G01 X186.5775 Y-117.8825
G01 X186.0096 Y-117.8820
G01 X185.9212 Y-117.8572
G01 X185.6545 Y-117.7239
G01 X185.6064 Y-117.6921
G01 X185.4258 Y-117.5052
G01 X185.2609 Y-117.1669
G01 X185.2531 Y-117.1058
G01 X185.2543 Y-116.2828
G00 Z2.0000
G00 X184.0509 Y-116.8154
G01 F60.00
G01 Z-0.0700
G01 F120.00
G01 X183.4212 Y-116.8163
G01 X183.2787 Y-116.8875
G01 X183.2074 Y-117.0300
G01 X183.2074 Y-117.1816
G01 X183.2787 Y-117.3241
G01 X183.4212 Y-117.3953
G01 X183.9727 Y-117.3953
G01 X184.0531 Y-117.3551
G01 X184.0509 Y-116.8154
G00 Z2.0000
G00 X182.7207 Y-116.9518
G01 F60.00
G01 Z-0.0700
G01 F120.00
G01 X182.7455 Y-116.8634
G01 X182.8788 Y-116.5968
G01 X182.9150 Y-116.5435
G01 X182.9791 Y-116.4924
G01 X183.2545 Y-116.3544
G01 X183.3497 Y-116.3291
G01 X183.9727 Y-116.3286
G01 X184.0531 Y-116.2884
G01 X184.0531 Y-116.2300
G01 X183.9819 Y-116.0875
G01 X183.8394 Y-116.0163
G01 X183.4212 Y-116.0163
G01 X183.1581 Y-116.1418
G01 X183.0698 Y-116.1481
G01 X182.9791 Y-116.1192
G01 X182.9347 Y-116.0877
G01 X182.8924 Y-116.0385
G01 X182.8681 Y-115.9898
G01 X182.8535 Y-115.9197
G01 X182.8587 Y-115.8542
G01 X182.8757 Y-115.8033
G01 X182.9106 Y-115.7486
G01 X182.9501 Y-115.7112
G01 X183.2545 Y-115.5544
G01 X183.3192 Y-115.5328
G01 X183.9108 Y-115.5291
G01 X183.9933 Y-115.5486
G01 X184.2726 Y-115.6877
G01 X184.3208 Y-115.7194
G01 X184.3611 Y-115.7629
G01 X184.5211 Y-116.0766
G01 X184.5407 Y-116.1691
G01 X184.5398 Y-117.6597
G01 X184.5292 Y-117.7131
G01 X184.5103 Y-117.7570
G01 X184.4717 Y-117.8091
G01 X184.4345 Y-117.8404
G01 X184.3709 Y-117.8714
G01 X184.3003 Y-117.8829
G01 X184.2294 Y-117.8734
G01 X184.1653 Y-117.8443
G01 X184.1042 Y-117.8714
G01 X184.0442 Y-117.8825
G01 X183.3431 Y-117.8820
G01 X183.2672 Y-117.8630
G01 X182.9879 Y-117.7239
G01 X182.9347 Y-117.6877
G01 X182.8923 Y-117.6383
G01 X182.7347 Y-117.3231
G01 X182.7202 Y-117.2530
G01 X182.7207 Y-116.9518
G00 Z2.0000
G00 X179.6547 Y-114.8119
G01 F60.00
G01 Z-0.0700
G01 F120.00
G01 X179.6730 Y-114.7427
G01 X179.7106 Y-114.6819
G01 X179.7643 Y-114.6346
G01 X179.8294 Y-114.6049
G01 X179.9003 Y-114.5954
G01 X179.9709 Y-114.6069
G01 X180.0352 Y-114.6383
G01 X180.0875 Y-114.6871
G01 X180.1179 Y-114.7360
G01 X180.8303 Y-116.2625
G01 X181.5651 Y-114.6977
G01 X181.6015 Y-114.6571
G01 X181.6517 Y-114.6226
G01 X181.7009 Y-114.6035
G01 X181.7602 Y-114.5954
G01 X181.8191 Y-114.6017
G01 X181.8697 Y-114.6197
G01 X181.9208 Y-114.6528
G01 X181.9607 Y-114.6956
G01 X181.9959 Y-114.7651
G01 X182.0074 Y-114.8391
G01 X182.0074 Y-117.6391
G01 X182.0020 Y-117.6900
G01 X181.9802 Y-117.7511
G01 X181.9499 Y-117.7964
G01 X181.9156 Y-117.8297
G01 X181.8595 Y-117.8633
G01 X181.8078 Y-117.8789
G01 X181.7363 Y-117.8814
G01 X181.6734 Y-117.8656
G01 X181.6254 Y-117.8399
G01 X181.5773 Y-117.7964
G01 X181.5470 Y-117.7511
G01 X181.5250 Y-117.6892
G01 X181.5198 Y-117.6391
G01 X181.5198 Y-115.9382
G01 X181.0383 Y-116.9663
G01 X180.9966 Y-117.0174
G01 X180.9516 Y-117.0506
G01 X180.8930 Y-117.0747
G01 X180.8226 Y-117.0828
G01 X180.7665 Y-117.0744
G01 X180.7068 Y-117.0493
G01 X180.6528 Y-117.0062
G01 X180.6201 Y-116.9626
G01 X180.1408 Y-115.9382
G01 X180.1408 Y-117.6391
G01 X180.1353 Y-117.6900
G01 X180.1103 Y-117.7570
G01 X180.0693 Y-117.8116
G01 X180.0148 Y-117.8525
G01 X179.9470 Y-117.8778
G01 X179.8764 Y-117.8820
G01 X179.8068 Y-117.8656
G01 X179.7449 Y-117.8297
G01 X179.7064 Y-117.7912
G01 X179.6646 Y-117.7131
G01 X179.6531 Y-117.6391
G01 X179.6547 Y-114.8119
G00 Z2.0000
G00 X182.0704 Y-111.1745
G01 F60.00
G01 Z-0.0700
G01 F120.00
G01 X182.1064 Y-111.1126
G01 X182.1449 Y-111.0741
G01 X182.2010 Y-111.0405
G01 X182.2697 Y-111.0224
G01 X182.3412 Y-111.0249
G01 X182.4089 Y-111.0481
G01 X182.4693 Y-111.0922
G01 X182.5125 Y-111.1509
G01 X182.7243 Y-111.0451
G01 X182.7802 Y-111.0260
G01 X183.1175 Y-111.0217
G01 X183.1933 Y-111.0407
G01 X183.2693 Y-111.0922
G01 X183.3135 Y-111.1527
G01 X183.3392 Y-111.2374
G01 X183.3367 Y-111.3089
G01 X183.3208 Y-111.3610
G01 X183.2875 Y-111.4167
G01 X183.2490 Y-111.4552
G01 X183.1928 Y-111.4888
G01 X183.1242 Y-111.5069
G01 X182.8878 Y-111.5085
G01 X182.7080 Y-111.5984
G01 X182.6307 Y-111.6757
G01 X182.5408 Y-111.8555
G01 X182.5392 Y-113.1585
G01 X182.5135 Y-113.2432
G01 X182.4693 Y-113.3037
G01 X182.4089 Y-113.3479
G01 X182.3242 Y-113.3735
G01 X182.2294 Y-113.3655
G01 X182.1449 Y-113.3219
G01 X182.0835 Y-113.2492
G01 X182.0547 Y-113.1585
G01 X182.0531 Y-111.2646
G01 X182.0704 Y-111.1745
G00 Z2.0000
G00 X183.6540 Y-112.4440
G01 F60.00
G01 Z-0.0700
G01 F120.00
G01 X183.6788 Y-112.3556
G01 X183.8122 Y-112.0889
G01 X183.8483 Y-112.0357
G01 X183.9125 Y-111.9845
G01 X184.1879 Y-111.8465
G01 X184.2830 Y-111.8212
G01 X184.9060 Y-111.8208
G01 X184.9864 Y-111.7806
G01 X184.9864 Y-111.7222
G01 X184.9152 Y-111.5797
G01 X184.7727 Y-111.5085
G01 X184.3545 Y-111.5085
G01 X184.0914 Y-111.6339
G01 X184.0031 Y-111.6402
G01 X183.9125 Y-111.6114
G01 X183.8680 Y-111.5799
G01 X183.8258 Y-111.5307
G01 X183.8014 Y-111.4819
G01 X183.7869 Y-111.4119
G01 X183.7920 Y-111.3463
G01 X183.8091 Y-111.2955
G01 X183.8439 Y-111.2408
G01 X183.8835 Y-111.2033
G01 X184.1879 Y-111.0465
G01 X184.2526 Y-111.0249
G01 X184.8442 Y-111.0212
G01 X184.9267 Y-111.0407
G01 X185.2060 Y-111.1799
G01 X185.2541 Y-111.2116
G01 X185.2944 Y-111.2550
G01 X185.4544 Y-111.5687
G01 X185.4740 Y-111.6612
G01 X185.4732 Y-113.1518
G01 X185.4625 Y-113.2053
G01 X185.4436 Y-113.2492
G01 X185.4050 Y-113.3013
G01 X185.3678 Y-113.3326
G01 X185.3042 Y-113.3636
G01 X185.2336 Y-113.3750
G01 X185.1627 Y-113.3655
G01 X185.0986 Y-113.3364
G01 X185.0376 Y-113.3636
G01 X184.9775 Y-113.3747
G01 X184.2764 Y-113.3742
G01 X184.2005 Y-113.3552
G01 X183.9212 Y-113.2161
G01 X183.8680 Y-113.1799
G01 X183.8256 Y-113.1304
G01 X183.6681 Y-112.8153
G01 X183.6535 Y-112.7452
G01 X183.6540 Y-112.4440
G00 Z2.0000
G00 X184.9842 Y-112.3075
G01 F60.00
G01 Z-0.0700
G01 F120.00
G01 X184.3545 Y-112.3085
G01 X184.2120 Y-112.3797
G01 X184.1408 Y-112.5222
G01 X184.1408 Y-112.6737
G01 X184.2120 Y-112.8162
G01 X184.3545 Y-112.8875
G01 X184.9060 Y-112.8875
G01 X184.9864 Y-112.8473
G01 X184.9842 Y-112.3075
G00 Z2.0000
G00 X186.3371 Y-111.1745
G01 F60.00
G01 Z-0.0700
G01 F120.00
G01 X186.3730 Y-111.1126
G01 X186.4116 Y-111.0741
G01 X186.4677 Y-111.0405
G01 X186.5363 Y-111.0224
G01 X186.5908 Y-111.0224
G01 X186.6538 Y-111.0381
G01 X186.7018 Y-111.0638
G01 X186.7446 Y-111.1015
G01 X186.8677 Y-111.0405
G01 X186.9363 Y-111.0224
G01 X187.3775 Y-111.0212
G01 X187.4600 Y-111.0407
G01 X187.7393 Y-111.1799
G01 X187.7874 Y-111.2116
G01 X187.8278 Y-111.2550
G01 X187.9877 Y-111.5687
G01 X188.0073 Y-111.6612
G01 X188.0065 Y-113.1518
G01 X187.9959 Y-113.2053
G01 X187.9770 Y-113.2492
G01 X187.9383 Y-113.3013
G01 X187.9012 Y-113.3326
G01 X187.8538 Y-113.3578
G01 X187.7908 Y-113.3735
G01 X187.7363 Y-113.3735
G01 X187.6896 Y-113.3636
G01 X187.6310 Y-113.3358
G01 X187.5912 Y-113.3037
G01 X187.5590 Y-113.2639
G01 X187.5313 Y-113.2053
G01 X187.5198 Y-113.1313
G01 X187.5198 Y-111.7222
G01 X187.4485 Y-111.5797
G01 X187.3060 Y-111.5085
G01 X187.0212 Y-111.5085
G01 X186.8414 Y-111.5984
G01 X186.8074 Y-111.6323
G01 X186.8074 Y-113.1313
G01 X186.7978 Y-113.1988
G01 X186.7681 Y-113.2639
G01 X186.7208 Y-113.3176
G01 X186.6755 Y-113.3479
G01 X186.6078 Y-113.3710
G01 X186.5363 Y-113.3735
G01 X186.4672 Y-113.3552
G01 X186.4064 Y-113.3176
G01 X186.3623 Y-113.2689
G01 X186.3313 Y-113.2053
G01 X186.3198 Y-113.1313
G01 X186.3198 Y-111.2646
G01 X186.3371 Y-111.1745
G00 Z2.0000
G00 X188.7210 Y-111.7749
G01 F60.00
G01 Z-0.0700
G01 F120.00
G01 X188.7455 Y-111.6889
G01 X188.8835 Y-111.4134
G01 X188.9212 Y-111.3623
G01 X189.0976 Y-111.1935
G01 X189.4229 Y-111.0323
G01 X189.4969 Y-111.0208
G01 X190.0680 Y-111.0238
G01 X190.1393 Y-111.0465
G01 X190.4437 Y-111.2033
G01 X190.4833 Y-111.2408
G01 X190.5209 Y-111.3017
G01 X190.5383 Y-111.3641
G01 X190.5398 Y-111.4186
G01 X190.5258 Y-111.4819
G01 X190.4916 Y-111.5447
G01 X190.4541 Y-111.5843
G01 X190.3932 Y-111.6219
G01 X190.3069 Y-111.6415
G01 X190.2353 Y-111.6338
G01 X189.9727 Y-111.5085
G01 X189.5545 Y-111.5085
G01 X189.3747 Y-111.5984
G01 X189.2973 Y-111.6757
G01 X189.2074 Y-111.8555
G01 X189.2074 Y-112.5404
G01 X189.2973 Y-112.7202
G01 X189.3747 Y-112.7976
G01 X189.5545 Y-112.8875
G01 X189.9727 Y-112.8875
G01 X190.2358 Y-112.7620
G01 X190.3241 Y-112.7557
G01 X190.3994 Y-112.7768
G01 X190.4541 Y-112.8116
G01 X190.4884 Y-112.8470
G01 X190.5165 Y-112.8920
G01 X190.5329 Y-112.9368
G01 X190.5407 Y-113.0012
G01 X190.5352 Y-113.0496
G01 X190.5181 Y-113.1004
G01 X190.4939 Y-113.1416
G01 X190.4490 Y-113.1885
G01 X190.4060 Y-113.2161
G01 X190.1261 Y-113.3554
G01 X190.0442 Y-113.3747
G01 X189.4526 Y-113.3710
G01 X189.3879 Y-113.3494
G01 X189.0835 Y-113.1926
G01 X188.8957 Y-113.0022
G01 X188.7455 Y-112.7070
G01 X188.7276 Y-112.6591
G01 X188.7198 Y-112.5980
G01 X188.7210 Y-111.7749
G00 Z2.0000
G00 X191.2704 Y-111.1745
G01 F60.00
G01 Z-0.0700
G01 F120.00
G01 X191.3064 Y-111.1126
G01 X191.3643 Y-111.0601
G01 X191.4469 Y-111.0260
G01 X191.5242 Y-111.0224
G01 X191.6089 Y-111.0481
G01 X191.6693 Y-111.0922
G01 X191.7135 Y-111.1527
G01 X191.7392 Y-111.2374
G01 X191.7392 Y-113.1585
G01 X191.7135 Y-113.2432
G01 X191.6693 Y-113.3037
G01 X191.6089 Y-113.3479
G01 X191.5242 Y-113.3735
G01 X191.4294 Y-113.3655
G01 X191.3449 Y-113.3219
G01 X191.2835 Y-113.2492
G01 X191.2547 Y-113.1585
G01 X191.2531 Y-111.2646
G01 X191.2704 Y-111.1745
G00 Z2.0000
G00 X191.1207 Y-110.4441
G01 F60.00
G01 Z-0.0700
G01 F120.00
G01 X191.1313 Y-110.3906
G01 X191.1628 Y-110.3264
G01 X191.3270 Y-110.1565
G01 X191.4036 Y-110.1060
G01 X191.4494 Y-110.0921
G01 X191.5003 Y-110.0875
G01 X191.5677 Y-110.0979
G01 X191.6324 Y-110.1285
G01 X191.8027 Y-110.2922
G01 X191.8555 Y-110.3713
G01 X191.8694 Y-110.4171
G01 X191.8740 Y-110.4680
G01 X191.8636 Y-110.5354
G01 X191.8330 Y-110.6001
G01 X191.6693 Y-110.7704
G01 X191.5902 Y-110.8232
G01 X191.5445 Y-110.8371
G01 X191.4936 Y-110.8417
G01 X191.4261 Y-110.8313
G01 X191.3614 Y-110.8007
G01 X191.1888 Y-110.6346
G01 X191.1502 Y-110.5825
G01 X191.1313 Y-110.5386
G01 X191.1207 Y-110.4441
G00 Z2.0000
G00 X192.4543 Y-111.6416
G01 F60.00
G01 Z-0.0700
G01 F120.00
G01 X192.4788 Y-111.5556
G01 X192.6137 Y-111.2859
G01 X192.6510 Y-111.2328
G01 X192.7125 Y-111.1845
G01 X193.0294 Y-111.0304
G01 X193.0969 Y-111.0208
G01 X193.5478 Y-111.0262
G01 X193.6060 Y-111.0465
G01 X193.8726 Y-111.1799
G01 X193.9336 Y-111.2233
G01 X193.9737 Y-111.2743
G01 X193.9959 Y-111.3241
G01 X194.0072 Y-111.3879
G01 X194.0043 Y-111.4370
G01 X193.9900 Y-111.4882
G01 X193.9582 Y-111.5447
G01 X193.9208 Y-111.5843
G01 X193.8661 Y-111.6192
G01 X193.7907 Y-111.6402
G01 X193.7019 Y-111.6338
G01 X193.4394 Y-111.5085
G01 X193.1545 Y-111.5085
G01 X193.0120 Y-111.5797
G01 X192.9408 Y-111.7222
G01 X192.9408 Y-111.7404
G01 X193.0120 Y-111.8829
G01 X193.1545 Y-111.9541
G01 X193.4969 Y-111.9541
G01 X193.5646 Y-111.9637
G01 X193.8872 Y-112.1212
G01 X193.9326 Y-112.1555
G01 X193.9645 Y-112.1932
G01 X194.1292 Y-112.5240
G01 X194.1403 Y-112.5840
G01 X194.1407 Y-112.7347
G01 X194.1328 Y-112.7929
G01 X194.1150 Y-112.8403
G01 X193.9770 Y-113.1157
G01 X193.9326 Y-113.1737
G01 X193.8726 Y-113.2161
G01 X193.6060 Y-113.3494
G01 X193.5470 Y-113.3699
G01 X192.9636 Y-113.3751
G01 X192.9127 Y-113.3697
G01 X192.8576 Y-113.3508
G01 X192.5849 Y-113.2145
G01 X192.5269 Y-113.1726
G01 X192.4868 Y-113.1216
G01 X192.4646 Y-113.0718
G01 X192.4534 Y-113.0080
G01 X192.4563 Y-112.9590
G01 X192.4705 Y-112.9077
G01 X192.5023 Y-112.8512
G01 X192.5398 Y-112.8116
G01 X192.5945 Y-112.7768
G01 X192.6698 Y-112.7557
G01 X192.7586 Y-112.7621
G01 X193.0212 Y-112.8875
G01 X193.4394 Y-112.8875
G01 X193.5818 Y-112.8162
G01 X193.6531 Y-112.6737
G01 X193.6531 Y-112.6555
G01 X193.5818 Y-112.5130
G01 X193.4394 Y-112.4418
G01 X193.0969 Y-112.4418
G01 X193.0353 Y-112.4338
G01 X192.7212 Y-112.2827
G01 X192.6731 Y-112.2510
G01 X192.6168 Y-112.1824
G01 X192.4681 Y-111.8819
G01 X192.4535 Y-111.8119
G01 X192.4543 Y-111.6416
G00 Z2.0000
G00 X194.7207 Y-111.7773
G01 F60.00
G01 Z-0.0700
G01 F120.00
G01 X194.7455 Y-111.6889
G01 X194.8835 Y-111.4134
G01 X194.9212 Y-111.3623
G01 X195.0976 Y-111.1935
G01 X195.4229 Y-111.0323
G01 X195.4969 Y-111.0208
G01 X196.0680 Y-111.0238
G01 X196.1393 Y-111.0465
G01 X196.4437 Y-111.2033
G01 X196.4833 Y-111.2408
G01 X196.5209 Y-111.3017
G01 X196.5383 Y-111.3641
G01 X196.5398 Y-111.4186
G01 X196.5258 Y-111.4819
G01 X196.4916 Y-111.5447
G01 X196.4541 Y-111.5843
G01 X196.3932 Y-111.6219
G01 X196.3069 Y-111.6415
G01 X196.2353 Y-111.6338
G01 X195.9727 Y-111.5085
G01 X195.5545 Y-111.5085
G01 X195.3747 Y-111.5984
G01 X195.2973 Y-111.6757
G01 X195.2074 Y-111.8555
G01 X195.2074 Y-112.5404
G01 X195.2973 Y-112.7202
G01 X195.3747 Y-112.7976
G01 X195.5545 Y-112.8875
G01 X195.9727 Y-112.8875
G01 X196.2358 Y-112.7620
G01 X196.3241 Y-112.7557
G01 X196.3994 Y-112.7768
G01 X196.4541 Y-112.8116
G01 X196.4884 Y-112.8470
G01 X196.5165 Y-112.8920
G01 X196.5329 Y-112.9368
G01 X196.5407 Y-113.0012
G01 X196.5352 Y-113.0496
G01 X196.5181 Y-113.1004
G01 X196.4939 Y-113.1416
G01 X196.4490 Y-113.1885
G01 X196.4060 Y-113.2161
G01 X196.1261 Y-113.3554
G01 X196.0442 Y-113.3747
G01 X195.4526 Y-113.3710
G01 X195.3879 Y-113.3494
G01 X195.0835 Y-113.1926
G01 X194.8957 Y-113.0022
G01 X194.7455 Y-112.7070
G01 X194.7276 Y-112.6591
G01 X194.7198 Y-112.5980
G01 X194.7207 Y-111.7773
G00 Z2.0000
G00 X197.1210 Y-111.7749
G01 F60.00
G01 Z-0.0700
G01 F120.00
G01 X197.1455 Y-111.6889
G01 X197.2835 Y-111.4134
G01 X197.3212 Y-111.3623
G01 X197.4976 Y-111.1935
G01 X197.8130 Y-111.0358
G01 X197.8969 Y-111.0208
G01 X198.3412 Y-111.0249
G01 X198.4060 Y-111.0465
G01 X198.7018 Y-111.1972
G01 X198.8693 Y-111.3589
G01 X198.9015 Y-111.3987
G01 X199.0498 Y-111.6920
G01 X199.0725 Y-111.7707
G01 X199.0711 Y-112.6357
G01 X199.0484 Y-112.7070
G01 X198.8977 Y-113.0029
G01 X198.7360 Y-113.1704
G01 X198.6961 Y-113.2026
G01 X198.4029 Y-113.3508
G01 X198.3346 Y-113.3721
G01 X197.8969 Y-113.3751
G01 X197.8461 Y-113.3697
G01 X197.7879 Y-113.3494
G01 X197.4920 Y-113.1988
G01 X197.2957 Y-113.0022
G01 X197.1455 Y-112.7070
G01 X197.1276 Y-112.6591
G01 X197.1198 Y-112.5980
G01 X197.1210 Y-111.7749
G00 Z2.0000
G00 X198.5864 Y-111.8555
G01 F60.00
G01 Z-0.0700
G01 F120.00
G01 X198.4965 Y-111.6757
G01 X198.4192 Y-111.5984
G01 X198.2394 Y-111.5085
G01 X197.9545 Y-111.5085
G01 X197.7747 Y-111.5984
G01 X197.6973 Y-111.6757
G01 X197.6074 Y-111.8555
G01 X197.6074 Y-112.5404
G01 X197.6973 Y-112.7202
G01 X197.7747 Y-112.7976
G01 X197.9545 Y-112.8875
G01 X198.2394 Y-112.8875
G01 X198.4192 Y-112.7976
G01 X198.4965 Y-112.7202
G01 X198.5864 Y-112.5404
G01 X198.5864 Y-111.8555
G00 Z2.0000
G00 X201.9294 Y-110.2638
G01 F60.00
G01 Z-0.0700
G01 F120.00
G01 X201.9590 Y-110.1987
G01 X202.0063 Y-110.1450
G01 X202.0517 Y-110.1147
G01 X202.1193 Y-110.0916
G01 X202.8303 Y-110.0875
G01 X202.9074 Y-110.1000
G01 X203.3105 Y-110.2344
G01 X203.3874 Y-110.2783
G01 X203.6916 Y-110.5845
G01 X203.8484 Y-110.8889
G01 X203.8668 Y-110.9388
G01 X204.0052 Y-111.4990
G01 X204.0074 Y-111.9313
G01 X204.0020 Y-111.9822
G01 X203.8609 Y-112.5435
G01 X203.7103 Y-112.8492
G01 X203.6727 Y-112.9003
G01 X203.4027 Y-113.1704
G01 X203.3327 Y-113.2192
G01 X202.9074 Y-113.3626
G01 X202.8350 Y-113.3751
G01 X202.1193 Y-113.3710
G01 X202.0672 Y-113.3552
G01 X202.0116 Y-113.3219
G01 X201.9773 Y-113.2885
G01 X201.9470 Y-113.2432
G01 X201.9250 Y-113.1813
G01 X201.9198 Y-113.1313
G01 X201.9198 Y-110.3313
G01 X201.9294 Y-110.2638
G00 Z2.0000
G00 X203.4002 Y-111.0831
G01 F60.00
G01 Z-0.0700
G01 F120.00
G01 X203.2965 Y-110.8757
G01 X203.0985 Y-110.6777
G01 X202.7907 Y-110.5751
G01 X202.4074 Y-110.5751
G01 X202.4074 Y-112.8875
G01 X202.7907 Y-112.8875
G01 X203.0985 Y-112.7848
G01 X203.2965 Y-112.5869
G01 X203.4002 Y-112.3795
G01 X203.5198 Y-111.9013
G01 X203.5198 Y-111.5613
G01 X203.4002 Y-111.0831
G00 Z2.0000
G00 X204.5876 Y-111.6416
G01 F60.00
G01 Z-0.0700
G01 F120.00
G01 X204.6122 Y-111.5556
G01 X204.7502 Y-111.2802
G01 X204.7889 Y-111.2279
G01 X204.8545 Y-111.1799
G01 X205.1691 Y-111.0286
G01 X205.2303 Y-111.0208
G01 X205.8079 Y-111.0249
G01 X205.8696 Y-111.0451
G01 X206.1393 Y-111.1799
G01 X206.1954 Y-111.2186
G01 X206.2484 Y-111.2889
G01 X206.3831 Y-111.5586
G01 X206.4033 Y-111.6204
G01 X206.4063 Y-111.9552
G01 X206.3890 Y-112.0244
G01 X206.3543 Y-112.0831
G01 X206.2962 Y-112.1358
G01 X206.2147 Y-112.1696
G01 X205.0741 Y-112.3979
G01 X205.0741 Y-112.6737
G01 X205.1453 Y-112.8162
G01 X205.2878 Y-112.8875
G01 X205.7060 Y-112.8875
G01 X205.9691 Y-112.7620
G01 X206.0574 Y-112.7557
G01 X206.1266 Y-112.7740
G01 X206.1684 Y-112.7971
G01 X206.2096 Y-112.8328
G01 X206.2468 Y-112.8859
G01 X206.2663 Y-112.9368
G01 X206.2740 Y-113.0027
G01 X206.2672 Y-113.0553
G01 X206.2437 Y-113.1157
G01 X206.2122 Y-113.1602
G01 X206.1423 Y-113.2145
G01 X205.8726 Y-113.3494
G01 X205.8136 Y-113.3699
G01 X205.7636 Y-113.3751
G01 X205.1794 Y-113.3697
G01 X205.1212 Y-113.3494
G01 X204.8545 Y-113.2161
G01 X204.7946 Y-113.1737
G01 X204.7455 Y-113.1070
G01 X204.6107 Y-112.8373
G01 X204.5894 Y-112.7690
G01 X204.5876 Y-111.6416
G00 Z2.0000
G00 X205.0741 Y-111.7222
G01 F60.00
G01 Z-0.0700
G01 F120.00
G01 X205.0741 Y-111.9005
G01 X205.9198 Y-111.7314
G01 X205.8485 Y-111.5797
G01 X205.7060 Y-111.5085
G01 X205.2878 Y-111.5085
G01 X205.1453 Y-111.5797
G01 X205.0741 Y-111.7222
G00 Z2.0000
G00 X209.2585 Y-110.2804
G01 F60.00
G01 Z-0.0700
G01 F120.00
G01 X209.2924 Y-110.1987
G01 X209.3449 Y-110.1407
G01 X209.4229 Y-110.0990
G01 X209.5003 Y-110.0875
G01 X209.5871 Y-110.1048
G01 X209.6542 Y-110.1450
G01 X209.7103 Y-110.2134
G01 X209.7367 Y-110.2870
G01 X209.7408 Y-112.8875
G01 X210.8303 Y-112.8875
G01 X210.9204 Y-112.9048
G01 X210.9823 Y-112.9407
G01 X211.0208 Y-112.9793
G01 X211.0568 Y-113.0411
G01 X211.0732 Y-113.1108
G01 X211.0687 Y-113.1822
G01 X211.0436 Y-113.2492
G01 X211.0027 Y-113.3037
G01 X210.9481 Y-113.3447
G01 X210.8978 Y-113.3655
G01 X210.8303 Y-113.3751
G01 X209.4764 Y-113.3742
G01 X209.4229 Y-113.3636
G01 X209.3643 Y-113.3358
G01 X209.3222 Y-113.3013
G01 X209.2835 Y-113.2492
G01 X209.2627 Y-113.1988
G01 X209.2531 Y-113.1313
G01 X209.2531 Y-110.3313
G01 X209.2585 Y-110.2804
G00 Z2.0000
G00 X211.3876 Y-112.4416
G01 F60.00
G01 Z-0.0700
G01 F120.00
G01 X211.4122 Y-112.3556
G01 X211.5455 Y-112.0889
G01 X211.5817 Y-112.0357
G01 X211.6458 Y-111.9845
G01 X211.9212 Y-111.8465
G01 X212.0163 Y-111.8212
G01 X212.6394 Y-111.8208
G01 X212.7198 Y-111.7806
G01 X212.7198 Y-111.7222
G01 X212.6485 Y-111.5797
G01 X212.5060 Y-111.5085
G01 X212.0878 Y-111.5085
G01 X211.8247 Y-111.6339
G01 X211.7365 Y-111.6402
G01 X211.6458 Y-111.6114
G01 X211.6013 Y-111.5799
G01 X211.5591 Y-111.5307
G01 X211.5347 Y-111.4819
G01 X211.5202 Y-111.4119
G01 X211.5253 Y-111.3463
G01 X211.5424 Y-111.2955
G01 X211.5772 Y-111.2408
G01 X211.6168 Y-111.2033
G01 X211.9212 Y-111.0465
G01 X211.9859 Y-111.0249
G01 X212.5775 Y-111.0212
G01 X212.6600 Y-111.0407
G01 X212.9393 Y-111.1799
G01 X212.9874 Y-111.2116
G01 X213.0278 Y-111.2550
G01 X213.1877 Y-111.5687
G01 X213.2073 Y-111.6612
G01 X213.2065 Y-113.1518
G01 X213.1959 Y-113.2053
G01 X213.1770 Y-113.2492
G01 X213.1383 Y-113.3013
G01 X213.1012 Y-113.3326
G01 X213.0376 Y-113.3636
G01 X212.9670 Y-113.3750
G01 X212.8961 Y-113.3655
G01 X212.8319 Y-113.3364
G01 X212.7709 Y-113.3636
G01 X212.7108 Y-113.3747
G01 X212.0097 Y-113.3742
G01 X211.9339 Y-113.3552
G01 X211.6545 Y-113.2161
G01 X211.6013 Y-113.1799
G01 X211.5589 Y-113.1304
G01 X211.4014 Y-112.8153
G01 X211.3869 Y-112.7452
G01 X211.3876 Y-112.4416
G00 Z2.0000
G00 X212.7175 Y-112.3075
G01 F60.00
G01 Z-0.0700
G01 F120.00
G01 X212.0878 Y-112.3085
G01 X211.9453 Y-112.3797
G01 X211.8741 Y-112.5222
G01 X211.8741 Y-112.6737
G01 X211.9453 Y-112.8162
G01 X212.0878 Y-112.8875
G01 X212.6394 Y-112.8875
G01 X212.7198 Y-112.8473
G01 X212.7175 Y-112.3075
G00 Z2.0000
G00 X211.3864 Y-102.8398
G01 F60.00
G01 Z-0.0700
G01 F120.00
G01 X211.2965 Y-102.6600
G01 X211.2192 Y-102.5827
G01 X211.0394 Y-102.4928
G01 X210.7545 Y-102.4928
G01 X210.5747 Y-102.5827
G01 X210.4973 Y-102.6600
G01 X210.4074 Y-102.8398
G01 X210.4074 Y-103.5247
G01 X210.4973 Y-103.7045
G01 X210.5747 Y-103.7819
G01 X210.7545 Y-103.8718
G01 X211.0394 Y-103.8718
G01 X211.2192 Y-103.7819
G01 X211.2965 Y-103.7045
G01 X211.3864 Y-103.5247
G01 X211.3864 Y-102.8398
G00 Z2.0000
G00 X212.5980 Y-102.1750
G01 F60.00
G01 Z-0.0700
G01 F120.00
G01 X212.6257 Y-102.1163
G01 X212.6730 Y-102.0627
G01 X212.7183 Y-102.0324
G01 X212.7860 Y-102.0092
G01 X212.8745 Y-102.0092
G01 X212.9422 Y-102.0324
G01 X213.0027 Y-102.0765
G01 X213.0459 Y-102.1352
G01 X213.2576 Y-102.0294
G01 X213.3136 Y-102.0103
G01 X213.6336 Y-102.0052
G01 X213.7204 Y-102.0224
G01 X213.7875 Y-102.0627
G01 X213.8436 Y-102.1311
G01 X213.8725 Y-102.2217
G01 X213.8700 Y-102.2932
G01 X213.8542 Y-102.3453
G01 X213.8208 Y-102.4010
G01 X213.7823 Y-102.4395
G01 X213.7261 Y-102.4731
G01 X213.6575 Y-102.4912
G01 X213.4212 Y-102.4928
G01 X213.2414 Y-102.5827
G01 X213.1640 Y-102.6600
G01 X213.0741 Y-102.8398
G01 X213.0725 Y-104.1429
G01 X213.0468 Y-104.2275
G01 X213.0027 Y-104.2880
G01 X212.9422 Y-104.3322
G01 X212.8575 Y-104.3579
G01 X212.7627 Y-104.3498
G01 X212.6782 Y-104.3062
G01 X212.6169 Y-104.2335
G01 X212.5880 Y-104.1429
G01 X212.5864 Y-102.2489
G01 X212.5980 Y-102.1750
G00 Z2.0000
G00 X214.3371 Y-101.2254
G01 F60.00
G01 Z-0.0700
G01 F120.00
G01 X214.3730 Y-101.1636
G01 X214.4260 Y-101.1143
G01 X214.4961 Y-101.0814
G01 X214.5670 Y-101.0718
G01 X214.6538 Y-101.0891
G01 X214.7156 Y-101.1250
G01 X214.7649 Y-101.1780
G01 X214.7959 Y-101.2416
G01 X214.8074 Y-101.3156
G01 X214.8074 Y-102.7269
G01 X215.4578 Y-102.0765
G01 X215.5124 Y-102.0356
G01 X215.6030 Y-102.0067
G01 X215.6575 Y-102.0067
G01 X215.7042 Y-102.0167
G01 X215.7481 Y-102.0356
G01 X215.8002 Y-102.0742
G01 X215.8544 Y-102.1531
G01 X215.8725 Y-102.2217
G01 X215.8725 Y-102.2762
G01 X215.8568 Y-102.3391
G01 X215.8208 Y-102.4010
G01 X215.1522 Y-103.0718
G01 X215.8253 Y-103.9693
G01 X215.8515 Y-104.0132
G01 X215.8738 Y-104.1057
G01 X215.8591 Y-104.1997
G01 X215.8095 Y-104.2808
G01 X215.7326 Y-104.3369
G01 X215.6640 Y-104.3570
G01 X215.5924 Y-104.3564
G01 X215.5242 Y-104.3351
G01 X215.4650 Y-104.2948
G01 X214.8074 Y-103.4249
G01 X214.8073 Y-104.1190
G01 X214.7978 Y-104.1831
G01 X214.7770 Y-104.2335
G01 X214.7360 Y-104.2880
G01 X214.6815 Y-104.3290
G01 X214.6136 Y-104.3542
G01 X214.5431 Y-104.3585
G01 X214.4734 Y-104.3421
G01 X214.4254 Y-104.3164
G01 X214.3730 Y-104.2676
G01 X214.3394 Y-104.2115
G01 X214.3198 Y-104.1156
G01 X214.3198 Y-101.3156
G01 X214.3371 Y-101.2254
G00 Z2.0000
G00 X216.4543 Y-102.6259
G01 F60.00
G01 Z-0.0700
G01 F120.00
G01 X216.4788 Y-102.5399
G01 X216.6137 Y-102.2702
G01 X216.6510 Y-102.2171
G01 X216.7125 Y-102.1688
G01 X217.0294 Y-102.0147
G01 X217.0969 Y-102.0051
G01 X217.5478 Y-102.0105
G01 X217.6060 Y-102.0308
G01 X217.8726 Y-102.1642
G01 X217.9336 Y-102.2076
G01 X217.9737 Y-102.2586
G01 X217.9959 Y-102.3084
G01 X218.0072 Y-102.3723
G01 X218.0043 Y-102.4213
G01 X217.9900 Y-102.4725
G01 X217.9582 Y-102.5291
G01 X217.9208 Y-102.5686
G01 X217.8661 Y-102.6035
G01 X217.7907 Y-102.6245
G01 X217.7019 Y-102.6181
G01 X217.4394 Y-102.4928
G01 X217.1545 Y-102.4928
G01 X217.0120 Y-102.5640
G01 X216.9408 Y-102.7065
G01 X216.9408 Y-102.7247
G01 X217.0120 Y-102.8672
G01 X217.1545 Y-102.9384
G01 X217.4969 Y-102.9384
G01 X217.5646 Y-102.9481
G01 X217.8872 Y-103.1055
G01 X217.9326 Y-103.1399
G01 X217.9645 Y-103.1775
G01 X218.1292 Y-103.5083
G01 X218.1403 Y-103.5684
G01 X218.1407 Y-103.7190
G01 X218.1328 Y-103.7773
G01 X218.1150 Y-103.8247
G01 X217.9770 Y-104.1001
G01 X217.9326 Y-104.1580
G01 X217.8726 Y-104.2004
G01 X217.6060 Y-104.3337
G01 X217.5469 Y-104.3542
G01 X216.9636 Y-104.3594
G01 X216.9127 Y-104.3540
G01 X216.8576 Y-104.3351
G01 X216.5849 Y-104.1988
G01 X216.5269 Y-104.1569
G01 X216.4868 Y-104.1059
G01 X216.4646 Y-104.0562
G01 X216.4534 Y-103.9923
G01 X216.4563 Y-103.9433
G01 X216.4705 Y-103.8920
G01 X216.5023 Y-103.8355
G01 X216.5398 Y-103.7959
G01 X216.5945 Y-103.7611
G01 X216.6698 Y-103.7400
G01 X216.7586 Y-103.7464
G01 X217.0212 Y-103.8718
G01 X217.4394 Y-103.8718
G01 X217.5818 Y-103.8005
G01 X217.6531 Y-103.6580
G01 X217.6531 Y-103.6398
G01 X217.5818 Y-103.4973
G01 X217.4394 Y-103.4261
G01 X217.0969 Y-103.4261
G01 X217.0353 Y-103.4181
G01 X216.7212 Y-103.2670
G01 X216.6731 Y-103.2353
G01 X216.6168 Y-103.1667
G01 X216.4681 Y-102.8662
G01 X216.4535 Y-102.7962
G01 X216.4543 Y-102.6259
G00 Z2.0000
G00 X218.8704 Y-101.2254
G01 F60.00
G01 Z-0.0700
G01 F120.00
G01 X218.9064 Y-101.1636
G01 X218.9449 Y-101.1250
G01 X219.0068 Y-101.0891
G01 X219.0764 Y-101.0727
G01 X219.1478 Y-101.0772
G01 X219.2148 Y-101.1022
G01 X219.2693 Y-101.1432
G01 X219.3103 Y-101.1977
G01 X219.3312 Y-101.2481
G01 X219.3407 Y-101.3122
G01 X219.3408 Y-102.0544
G01 X219.4130 Y-102.0201
G01 X219.4830 Y-102.0056
G01 X219.9003 Y-102.0052
G01 X219.9872 Y-102.0225
G01 X220.2756 Y-102.1658
G01 X220.3336 Y-102.2076
G01 X220.3770 Y-102.2645
G01 X220.5150 Y-102.5399
G01 X220.5355 Y-102.5989
G01 X220.5408 Y-102.6489
G01 X220.5398 Y-104.1361
G01 X220.5234 Y-104.2058
G01 X220.4977 Y-104.2538
G01 X220.4542 Y-104.3019
G01 X220.4089 Y-104.3322
G01 X220.3645 Y-104.3498
G01 X220.3003 Y-104.3594
G01 X220.2461 Y-104.3540
G01 X220.2005 Y-104.3395
G01 X220.1449 Y-104.3062
G01 X220.1106 Y-104.2728
G01 X220.0646 Y-104.1896
G01 X220.0531 Y-104.1156
G01 X220.0531 Y-102.7065
G01 X219.9818 Y-102.5640
G01 X219.8394 Y-102.4928
G01 X219.5545 Y-102.4928
G01 X219.3747 Y-102.5827
G01 X219.3408 Y-102.6166
G01 X219.3408 Y-104.1156
G01 X219.3312 Y-104.1831
G01 X219.3103 Y-104.2335
G01 X219.2693 Y-104.2880
G01 X219.2148 Y-104.3290
G01 X219.1645 Y-104.3498
G01 X219.0936 Y-104.3594
G01 X219.0229 Y-104.3479
G01 X218.9643 Y-104.3202
G01 X218.9106 Y-104.2728
G01 X218.8804 Y-104.2275
G01 X218.8583 Y-104.1656
G01 X218.8531 Y-104.1156
G01 X218.8531 Y-101.3156
G01 X218.8704 Y-101.2254
G00 Z2.0000
G00 X221.2543 Y-102.7593
G01 F60.00
G01 Z-0.0700
G01 F120.00
G01 X221.2788 Y-102.6732
G01 X221.4169 Y-102.3977
G01 X221.4545 Y-102.3466
G01 X221.6309 Y-102.1778
G01 X221.9463 Y-102.0201
G01 X222.0303 Y-102.0051
G01 X222.4745 Y-102.0092
G01 X222.5393 Y-102.0308
G01 X222.8352 Y-102.1815
G01 X223.0027 Y-102.3432
G01 X223.0348 Y-102.3830
G01 X223.1831 Y-102.6763
G01 X223.2058 Y-102.7550
G01 X223.2044 Y-103.6200
G01 X223.1817 Y-103.6913
G01 X223.0311 Y-103.9872
G01 X222.8693 Y-104.1547
G01 X222.8294 Y-104.1869
G01 X222.5363 Y-104.3351
G01 X222.4680 Y-104.3564
G01 X222.0303 Y-104.3594
G01 X221.9794 Y-104.3540
G01 X221.9212 Y-104.3337
G01 X221.6254 Y-104.1831
G01 X221.4290 Y-103.9865
G01 X221.2788 Y-103.6913
G01 X221.2609 Y-103.6434
G01 X221.2531 Y-103.5823
G01 X221.2543 Y-102.7593
G00 Z2.0000
G00 X222.7198 Y-102.8398
G01 F60.00
G01 Z-0.0700
G01 F120.00
G01 X222.6299 Y-102.6600
G01 X222.5525 Y-102.5827
G01 X222.3727 Y-102.4928
G01 X222.0878 Y-102.4928
G01 X221.9080 Y-102.5827
G01 X221.8307 Y-102.6600
G01 X221.7408 Y-102.8398
G01 X221.7408 Y-103.5247
G01 X221.8307 Y-103.7045
G01 X221.9080 Y-103.7819
G01 X222.0878 Y-103.8718
G01 X222.3727 Y-103.8718
G01 X222.5525 Y-103.7819
G01 X222.6299 Y-103.7045
G01 X222.7198 Y-103.5247
G01 X222.7198 Y-102.8398
G00 Z2.0000
G00 X223.9371 Y-102.1588
G01 F60.00
G01 Z-0.0700
G01 F120.00
G01 X223.9730 Y-102.0969
G01 X224.0116 Y-102.0584
G01 X224.0677 Y-102.0248
G01 X224.1363 Y-102.0067
G01 X224.2145 Y-102.0105
G01 X224.2953 Y-102.0438
G01 X224.3563 Y-102.0167
G01 X224.4163 Y-102.0056
G01 X224.9636 Y-102.0051
G01 X225.0376 Y-102.0167
G01 X225.3630 Y-102.1778
G01 X225.5429 Y-102.3504
G01 X225.5801 Y-102.4036
G01 X225.7150 Y-102.6732
G01 X225.7398 Y-102.7617
G01 X225.7378 Y-103.6200
G01 X225.7165 Y-103.6883
G01 X225.5717 Y-103.9759
G01 X225.5360 Y-104.0214
G01 X225.3678 Y-104.1836
G01 X225.0376 Y-104.3479
G01 X224.9636 Y-104.3594
G01 X224.4074 Y-104.3582
G01 X224.4074 Y-105.0489
G01 X224.4020 Y-105.0998
G01 X224.3770 Y-105.1668
G01 X224.3208 Y-105.2352
G01 X224.2595 Y-105.2731
G01 X224.1841 Y-105.2918
G01 X224.0896 Y-105.2812
G01 X224.0063 Y-105.2352
G01 X223.9470 Y-105.1609
G01 X223.9207 Y-105.0695
G01 X223.9198 Y-102.2489
G01 X223.9371 Y-102.1588
G00 Z2.0000
G00 X225.1632 Y-102.6600
G01 F60.00
G01 Z-0.0700
G01 F120.00
G01 X225.0858 Y-102.5827
G01 X224.9060 Y-102.4928
G01 X224.4878 Y-102.4928
G01 X224.4074 Y-102.5330
G01 X224.4074 Y-103.8316
G01 X224.4878 Y-103.8718
G01 X224.9060 Y-103.8718
G01 X225.0858 Y-103.7819
G01 X225.1632 Y-103.7045
G01 X225.2531 Y-103.5247
G01 X225.2531 Y-102.8398
G01 X225.1632 Y-102.6600
G00 Z2.0000
G00 X209.9210 Y-102.7593
G01 F60.00
G01 Z-0.0700
G01 F120.00
G01 X209.9455 Y-102.6732
G01 X210.0835 Y-102.3977
G01 X210.1212 Y-102.3466
G01 X210.2976 Y-102.1778
G01 X210.6130 Y-102.0201
G01 X210.6969 Y-102.0051
G01 X211.1412 Y-102.0092
G01 X211.2060 Y-102.0308
G01 X211.5018 Y-102.1815
G01 X211.6693 Y-102.3432
G01 X211.7015 Y-102.3830
G01 X211.8498 Y-102.6763
G01 X211.8725 Y-102.7550
G01 X211.8711 Y-103.6200
G01 X211.8484 Y-103.6913
G01 X211.6977 Y-103.9872
G01 X211.5360 Y-104.1547
G01 X211.4961 Y-104.1869
G01 X211.2029 Y-104.3351
G01 X211.1346 Y-104.3564
G01 X210.6969 Y-104.3594
G01 X210.6461 Y-104.3540
G01 X210.5879 Y-104.3337
G01 X210.2920 Y-104.1831
G01 X210.0957 Y-103.9865
G01 X209.9455 Y-103.6913
G01 X209.9276 Y-103.6434
G01 X209.9198 Y-103.5823
G01 X209.9210 Y-102.7593
G00 Z2.0000
G00 X206.5954 Y-101.2504
G01 F60.00
G01 Z-0.0700
G01 F120.00
G01 X206.6244 Y-101.1850
G01 X206.6712 Y-101.1309
G01 X206.7317 Y-101.0926
G01 X206.8007 Y-101.0736
G01 X206.8890 Y-101.0790
G01 X206.9551 Y-101.1062
G01 X207.0105 Y-101.1515
G01 X207.0504 Y-101.2109
G01 X207.0675 Y-101.2591
G01 X207.5103 Y-103.1191
G01 X207.8032 Y-102.0269
G01 X207.8388 Y-101.9648
G01 X207.8908 Y-101.9157
G01 X207.9548 Y-101.8838
G01 X208.0243 Y-101.8719
G01 X208.0963 Y-101.8809
G01 X208.1616 Y-101.9102
G01 X208.2156 Y-101.9572
G01 X208.2536 Y-102.0178
G01 X208.5502 Y-103.1191
G01 X209.0073 Y-101.2170
G01 X209.0348 Y-101.1700
G01 X209.0855 Y-101.1195
G01 X209.1486 Y-101.0859
G01 X209.2125 Y-101.0725
G01 X209.2834 Y-101.0777
G01 X209.3350 Y-101.0955
G01 X209.3944 Y-101.1353
G01 X209.4361 Y-101.1850
G01 X209.4704 Y-101.2737
G01 X209.4740 Y-101.3221
G01 X209.4675 Y-101.3721
G01 X208.8008 Y-104.1721
G01 X208.7616 Y-104.2580
G01 X208.6949 Y-104.3210
G01 X208.6491 Y-104.3440
G01 X208.6023 Y-104.3563
G01 X208.5546 Y-104.3593
G01 X208.5039 Y-104.3519
G01 X208.4589 Y-104.3358
G01 X208.4052 Y-104.3009
G01 X208.3463 Y-104.2262
G01 X208.3280 Y-104.1784
G01 X208.0303 Y-103.0619
G01 X207.7325 Y-104.1784
G01 X207.7045 Y-104.2435
G01 X207.6727 Y-104.2845
G01 X207.6197 Y-104.3263
G01 X207.5724 Y-104.3474
G01 X207.5053 Y-104.3593
G01 X207.4382 Y-104.3522
G01 X207.3894 Y-104.3345
G01 X207.3336 Y-104.2966
G01 X207.2990 Y-104.2580
G01 X207.2597 Y-104.1721
G01 X206.5931 Y-101.3721
G01 X206.5868 Y-101.3042
G01 X206.5954 Y-101.2504
G00 Z2.0000
G00 X198.5876 Y-107.1338
G01 F60.00
G01 Z-0.0700
G01 F120.00
G01 X198.6122 Y-107.0477
G01 X198.7471 Y-106.7781
G01 X198.7843 Y-106.7250
G01 X198.8458 Y-106.6767
G01 X199.1627 Y-106.5225
G01 X199.2303 Y-106.5129
G01 X199.6811 Y-106.5184
G01 X199.7393 Y-106.5387
G01 X200.0060 Y-106.6720
G01 X200.0670 Y-106.7154
G01 X200.1070 Y-106.7665
G01 X200.1292 Y-106.8162
G01 X200.1405 Y-106.8801
G01 X200.1376 Y-106.9291
G01 X200.1234 Y-106.9804
G01 X200.0916 Y-107.0369
G01 X200.0541 Y-107.0765
G01 X199.9994 Y-107.1113
G01 X199.9241 Y-107.1324
G01 X199.8353 Y-107.1260
G01 X199.5727 Y-107.0006
G01 X199.2878 Y-107.0006
G01 X199.1453 Y-107.0719
G01 X199.0741 Y-107.2143
G01 X199.0741 Y-107.2326
G01 X199.1453 Y-107.3750
G01 X199.2878 Y-107.4463
G01 X199.6303 Y-107.4463
G01 X199.6979 Y-107.4559
G01 X200.0206 Y-107.6134
G01 X200.0659 Y-107.6477
G01 X200.0978 Y-107.6853
G01 X200.2625 Y-108.0161
G01 X200.2736 Y-108.0762
G01 X200.2740 Y-108.2268
G01 X200.2661 Y-108.2851
G01 X200.2484 Y-108.3325
G01 X200.1104 Y-108.6079
G01 X200.0659 Y-108.6659
G01 X200.0060 Y-108.7082
G01 X199.7393 Y-108.8415
G01 X199.6803 Y-108.8621
G01 X199.0969 Y-108.8673
G01 X199.0461 Y-108.8619
G01 X198.9909 Y-108.8430
G01 X198.7182 Y-108.7066
G01 X198.6602 Y-108.6648
G01 X198.6202 Y-108.6138
G01 X198.5979 Y-108.5640
G01 X198.5867 Y-108.5001
G01 X198.5896 Y-108.4511
G01 X198.6038 Y-108.3998
G01 X198.6356 Y-108.3433
G01 X198.6731 Y-108.3038
G01 X198.7278 Y-108.2689
G01 X198.8031 Y-108.2479
G01 X198.8919 Y-108.2542
G01 X199.1545 Y-108.3796
G01 X199.5727 Y-108.3796
G01 X199.7152 Y-108.3084
G01 X199.7864 Y-108.1659
G01 X199.7864 Y-108.1477
G01 X199.7152 Y-108.0052
G01 X199.5727 Y-107.9340
G01 X199.2303 Y-107.9340
G01 X199.1686 Y-107.9260
G01 X198.8545 Y-107.7749
G01 X198.8064 Y-107.7431
G01 X198.7502 Y-107.6746
G01 X198.6014 Y-107.3741
G01 X198.5869 Y-107.3040
G01 X198.5876 Y-107.1338
G00 Z2.0000
G00 X196.4646 Y-105.7495
G01 F60.00
G01 Z-0.0700
G01 F120.00
G01 X196.4961 Y-105.6852
G01 X196.5449 Y-105.6329
G01 X196.6068 Y-105.5970
G01 X196.6936 Y-105.5797
G01 X196.7709 Y-105.5912
G01 X196.8352 Y-105.6226
G01 X196.8875 Y-105.6714
G01 X196.9292 Y-105.7495
G01 X196.9408 Y-105.8234
G01 X196.9408 Y-107.2348
G01 X197.5912 Y-106.5844
G01 X197.6457 Y-106.5434
G01 X197.7363 Y-106.5145
G01 X197.7908 Y-106.5145
G01 X197.8376 Y-106.5245
G01 X197.8815 Y-106.5434
G01 X197.9336 Y-106.5820
G01 X197.9877 Y-106.6609
G01 X198.0058 Y-106.7295
G01 X198.0058 Y-106.7840
G01 X197.9901 Y-106.8469
G01 X197.9542 Y-106.9088
G01 X197.2856 Y-107.5797
G01 X197.9587 Y-108.4771
G01 X197.9848 Y-108.5211
G01 X198.0072 Y-108.6135
G01 X197.9924 Y-108.7075
G01 X197.9428 Y-108.7887
G01 X197.8660 Y-108.8447
G01 X197.7973 Y-108.8649
G01 X197.7258 Y-108.8643
G01 X197.6575 Y-108.8429
G01 X197.5984 Y-108.8027
G01 X196.9408 Y-107.9327
G01 X196.9407 Y-108.6268
G01 X196.9312 Y-108.6910
G01 X196.9103 Y-108.7413
G01 X196.8693 Y-108.7959
G01 X196.8148 Y-108.8368
G01 X196.7470 Y-108.8621
G01 X196.6764 Y-108.8664
G01 X196.6068 Y-108.8499
G01 X196.5587 Y-108.8242
G01 X196.5064 Y-108.7755
